;FLAVOR:Marlin
;TIME:3410
;Filament used: 3.14789m
;Layer height: 0.2
;MINX:82.148
;MINY:77.738
;MINZ:0.3
;MAXX:116.615
;MAXY:123.99
;MAXZ:45.7
;Generated with Cura_SteamEngine 4.13.1
M140 S60
M105
M190 S60
M104 S200
M105
M109 S200
M82 ;absolute extrusion mode
G21 ;metric values
 G90 ;absolute positioning
 M82 ;set extruder to absolute mode
 M107 ;start with the fan off
 G28 X0 Y0 ;move X/Y to min endstops
 G28 Z0 ;move Z to min endstops
 G1 Z15.0 F120 ;move the platform down 15mm
 G92 E0 ;zero the extruded length
 G1 F200 E6 ;extrude 6 mm of feed stock
 G92 E0 ;zero the extruded length again
 G1 F120 
 ;Put printing message on LCD screen
 M117 Printing...
G92 E0
G92 E0
G1 F1500 E-6.5
;LAYER_COUNT:228
;LAYER:0
M107
G0 F3600 X87.371 Y82.574 Z0.3
;TYPE:SKIRT
G1 F1500 E0
G1 F1800 X87.719 Y82.217 E0.02487
G1 X88.162 Y81.791 E0.05553
G1 X88.787 Y81.251 E0.09674
G1 X89.314 Y80.842 E0.13002
G1 X89.961 Y80.39 E0.1694
G1 X90.944 Y79.869 E0.2249
G1 X93.5 Y78.74 E0.36431
G1 X94.592 Y78.352 E0.42213
G1 X95.118 Y78.208 E0.44933
G1 X95.89 Y78.038 E0.48877
G1 X96.674 Y77.947 E0.52815
G1 X97.464 Y77.936 E0.56757
G1 X97.562 Y77.93 E0.57246
G1 X98.422 Y77.831 E0.61565
G1 X99.757 Y77.752 E0.68237
G1 X100.282 Y77.738 E0.70857
G1 X100.803 Y77.755 E0.73458
G1 X101.893 Y77.828 E0.78908
G1 X102.623 Y77.912 E0.82574
G1 X102.809 Y77.942 E0.83514
G1 X103.572 Y77.95 E0.87321
G1 X104.357 Y78.038 E0.91262
G1 X105.113 Y78.2 E0.95119
G1 X105.824 Y78.39 E0.98791
G1 X106.575 Y78.633 E1.02729
G1 X106.98 Y78.799 E1.04913
G1 X109.388 Y79.87 E1.18061
G1 X110.092 Y80.227 E1.21999
G1 X111.027 Y80.856 E1.27621
G1 X111.502 Y81.228 E1.30631
G1 X112.165 Y81.811 E1.35036
G1 X112.553 Y82.193 E1.37752
G1 X112.712 Y82.305 E1.38723
G1 X113.342 Y82.78 E1.42659
G1 X113.922 Y83.316 E1.46599
G1 X114.445 Y83.908 E1.5054
G1 X114.904 Y84.55 E1.54477
G1 X115.198 Y85.047 E1.57358
G1 X115.415 Y85.447 E1.59629
G1 X115.856 Y86.411 E1.64917
G1 X116.075 Y86.991 E1.6801
G1 X116.398 Y88.082 E1.73687
G1 X116.436 Y88.256 E1.74575
G1 X116.566 Y89.035 E1.78516
G1 X116.615 Y89.823 E1.82455
G1 X116.585 Y90.612 E1.86394
G1 X116.475 Y91.394 E1.90334
G1 X116.287 Y92.161 E1.94273
G1 X116.022 Y92.905 E1.98214
G1 X115.684 Y93.618 E2.0215
G1 X115.274 Y94.294 E2.06095
G1 X114.799 Y94.924 E2.10031
G1 X114.356 Y95.402 E2.13282
G1 X114.491 Y95.772 E2.15247
G1 X114.722 Y96.527 E2.19187
G1 X114.836 Y97.054 E2.21877
G1 X114.939 Y97.837 E2.25817
G1 X114.965 Y98.467 E2.28962
G1 X114.965 Y98.834 E2.30793
G1 X114.925 Y99.623 E2.34735
G1 X114.84 Y100.224 E2.37763
G1 X114.664 Y100.993 E2.41699
G1 X114.486 Y101.544 E2.44588
G1 X114.356 Y101.9 E2.46478
G1 X113.877 Y102.959 E2.52277
G1 X113.791 Y103.104 E2.53118
G1 X113.91 Y103.226 E2.53968
G1 X114.402 Y103.844 E2.57909
G1 X114.828 Y104.509 E2.61849
G1 X115.185 Y105.213 E2.65788
G1 X115.469 Y105.95 E2.69728
G1 X115.677 Y106.712 E2.73669
G1 X115.807 Y107.491 E2.77609
G1 X115.857 Y108.279 E2.81548
G1 X115.828 Y109.068 E2.85487
G1 X115.719 Y109.85 E2.89426
G1 X115.531 Y110.617 E2.93366
G1 X115.415 Y110.943 E2.95092
G1 X115.313 Y111.432 E2.97585
G1 X115.125 Y112.145 E3.01263
G1 X114.896 Y112.869 E3.05052
G1 X114.564 Y113.764 E3.09814
G1 X114.223 Y114.548 E3.1408
G1 X113.885 Y115.222 E3.17841
G1 X113.463 Y115.96 E3.22083
G1 X113.011 Y116.659 E3.26236
G1 X112.578 Y117.263 E3.29943
G1 X112.025 Y117.962 E3.3439
G1 X111.563 Y118.495 E3.37909
G1 X110.993 Y119.095 E3.42038
G1 X110.334 Y119.713 E3.46545
G1 X109.653 Y120.281 E3.50969
G1 X109.092 Y120.707 E3.54484
G1 X108.386 Y121.195 E3.58765
G1 X107.759 Y121.586 E3.62452
G1 X106.935 Y122.047 E3.67163
G1 X106.29 Y122.37 E3.70761
G1 X105.607 Y122.673 E3.74489
G1 X104.848 Y122.963 E3.78543
G1 X103.891 Y123.273 E3.83562
G1 X103.335 Y123.431 E3.86445
G1 X102.564 Y123.619 E3.90405
G1 X101.72 Y123.776 E3.94687
G1 X100.811 Y123.894 E3.99261
G1 X100.15 Y123.951 E4.02571
G1 X99.265 Y123.99 E4.0699
G1 X98.525 Y123.988 E4.10682
G1 X97.897 Y123.956 E4.13819
G1 X97.243 Y123.895 E4.17096
G1 X95.964 Y123.721 E4.23536
G1 X95.298 Y123.601 E4.26912
G1 X94.775 Y123.483 E4.29587
G1 X94.12 Y123.305 E4.32973
G1 X93.086 Y122.975 E4.38388
G1 X92.336 Y122.692 E4.42388
G1 X91.679 Y122.405 E4.45964
G1 X90.95 Y122.04 E4.50032
G1 X90.041 Y121.524 E4.55247
G1 X89.417 Y121.13 E4.58928
G1 X88.746 Y120.66 E4.63015
G1 X88.18 Y120.223 E4.66583
G1 X87.553 Y119.692 E4.70682
G1 X87.005 Y119.181 E4.7442
G1 X86.417 Y118.577 E4.78626
G1 X85.897 Y117.985 E4.82557
G1 X85.335 Y117.277 E4.87067
G1 X84.897 Y116.667 E4.90813
G1 X84.411 Y115.906 E4.95318
G1 X84.087 Y115.343 E4.98559
G1 X83.89 Y114.963 E5.00694
G1 X83.659 Y114.501 E5.03271
G1 X83.351 Y113.801 E5.07087
G1 X83.059 Y113.038 E5.11163
G1 X82.824 Y112.32 E5.14932
G1 X82.587 Y111.459 E5.19387
G1 X82.399 Y110.585 E5.23847
G1 X82.284 Y109.844 E5.27588
G1 X82.214 Y109.234 E5.30651
G1 X82.166 Y108.58 E5.33923
G1 X82.155 Y108.395 E5.34848
G1 X82.148 Y107.605 E5.38789
G1 X82.221 Y106.819 E5.42727
G1 X82.373 Y106.044 E5.46668
G1 X82.603 Y105.289 E5.50605
G1 X82.907 Y104.56 E5.54546
G1 X83.284 Y103.866 E5.58486
G1 X83.73 Y103.214 E5.62427
G1 X84.084 Y102.802 E5.65137
G1 X84.41 Y102.382 E5.6779
G1 X84.954 Y101.81 E5.71728
G1 X85.553 Y101.295 E5.75669
G1 X85.673 Y101.212 E5.76397
G1 X85.415 Y100.601 E5.79706
G1 X85.302 Y100.286 E5.81375
G1 X85.073 Y99.53 E5.85316
G1 X84.964 Y99.014 E5.87947
G1 X84.862 Y98.231 E5.91887
G1 X84.838 Y97.642 E5.94828
G1 X84.837 Y97.306 E5.96504
G1 X84.875 Y96.517 E6.00445
G1 X84.973 Y95.833 E6.03892
G1 X84.98 Y95.796 E6.0408
G1 X85.166 Y95.029 E6.08018
G1 X85.412 Y94.307 E6.11823
G1 X85.715 Y93.578 E6.15762
G1 X86.18 Y92.752 E6.20491
G1 X86.152 Y92.713 E6.2073
G1 X85.754 Y92.031 E6.2467
G1 X85.427 Y91.313 E6.28606
G1 X85.174 Y90.564 E6.3255
G1 X84.998 Y89.795 E6.36486
G1 X84.901 Y89.011 E6.40427
G1 X84.884 Y88.221 E6.44369
G1 X84.947 Y87.434 E6.48308
G1 X85.089 Y86.657 E6.52249
G1 X85.309 Y85.899 E6.56187
G1 X85.604 Y85.166 E6.60129
G1 X86.146 Y84.188 E6.65707
G1 X86.419 Y83.769 E6.68202
G1 X86.883 Y83.13 E6.72142
G1 X87.371 Y82.574 E6.75833
G0 F3600 X87.666 Y82.844
G1 F1800 X87.997 Y82.505 E6.78197
G1 X88.44 Y82.079 E6.81263
G1 X89.032 Y81.567 E6.85168
G1 X89.559 Y81.158 E6.88496
G1 X90.19 Y80.719 E6.92331
G1 X91.106 Y80.235 E6.97499
G1 X93.662 Y79.106 E7.1144
G1 X94.698 Y78.738 E7.16925
G1 X95.224 Y78.594 E7.19646
G1 X95.975 Y78.429 E7.23482
G1 X96.74 Y78.344 E7.27322
G1 X97.509 Y78.338 E7.31159
G1 X98.446 Y78.23 E7.35864
G1 X99.781 Y78.151 E7.42536
G1 X100.282 Y78.138 E7.45037
G1 X100.776 Y78.155 E7.47503
G1 X101.866 Y78.228 E7.52953
G1 X102.559 Y78.307 E7.56433
G1 X102.839 Y78.341 E7.5784
G1 X103.608 Y78.354 E7.61677
G1 X104.372 Y78.446 E7.65516
G1 X105.009 Y78.587 E7.68771
G1 X105.72 Y78.777 E7.72443
G1 X106.452 Y79.014 E7.76281
G1 X106.817 Y79.165 E7.78252
G1 X109.225 Y80.236 E7.914
G1 X109.911 Y80.584 E7.95238
G1 X110.781 Y81.171 E8.00474
G1 X111.256 Y81.543 E8.03484
G1 X111.885 Y82.096 E8.07662
G1 X112.273 Y82.478 E8.10379
G1 X112.652 Y82.75 E8.12706
G1 X113.253 Y83.23 E8.16544
G1 X113.801 Y83.77 E8.20382
G1 X114.29 Y84.363 E8.24217
G1 X114.846 Y85.237 E8.29384
G1 X115.063 Y85.637 E8.31655
G1 X115.482 Y86.552 E8.36676
G1 X115.701 Y87.132 E8.39769
G1 X116.008 Y88.167 E8.45155
G1 X116.046 Y88.341 E8.46043
G1 X116.17 Y89.1 E8.4988
G1 X116.216 Y89.868 E8.53719
G1 X116.181 Y90.636 E8.57554
G1 X116.067 Y91.397 E8.61393
G1 X115.875 Y92.142 E8.65231
G1 X115.606 Y92.862 E8.69066
G1 X115.264 Y93.551 E8.72904
G1 X114.852 Y94.201 E8.76743
G1 X114.375 Y94.804 E8.80579
G1 X113.887 Y95.305 E8.84068
G1 X114.115 Y95.908 E8.87284
G1 X114.339 Y96.644 E8.91123
G1 X114.443 Y97.126 E8.93583
G1 X114.542 Y97.889 E8.97421
G1 X114.565 Y98.467 E9.00307
G1 X114.565 Y98.834 E9.02138
G1 X114.525 Y99.602 E9.05975
G1 X114.446 Y100.154 E9.08757
G1 X114.274 Y100.903 E9.12591
G1 X114.11 Y101.406 E9.1523
G1 X113.98 Y101.762 E9.17121
G1 X113.525 Y102.768 E9.2263
G1 X113.287 Y103.16 E9.24917
G1 X113.636 Y103.521 E9.27423
G1 X114.111 Y104.126 E9.3126
G1 X114.52 Y104.777 E9.35096
G1 X114.86 Y105.468 E9.38938
G1 X115.125 Y106.189 E9.4277
G1 X115.315 Y106.935 E9.46611
G1 X115.426 Y107.696 E9.50448
G1 X115.458 Y108.464 E9.54283
G1 X115.409 Y109.232 E9.58122
G1 X115.281 Y109.99 E9.61957
G1 X115.075 Y110.732 E9.65799
G1 X114.926 Y111.33 E9.68874
G1 X114.738 Y112.043 E9.72552
G1 X114.521 Y112.73 E9.76147
G1 X114.189 Y113.625 E9.80909
G1 X113.866 Y114.368 E9.84951
G1 X113.528 Y115.042 E9.88713
G1 X113.127 Y115.743 E9.92742
G1 X112.675 Y116.442 E9.96895
G1 X112.264 Y117.015 E10.00413
G1 X111.711 Y117.714 E10.0486
G1 X111.273 Y118.22 E10.08198
G1 X110.703 Y118.82 E10.12327
G1 X110.078 Y119.406 E10.16602
G1 X109.397 Y119.974 E10.21026
G1 X108.865 Y120.378 E10.24359
G1 X108.159 Y120.866 E10.2864
G1 X107.564 Y121.237 E10.32139
G1 X106.74 Y121.698 E10.36849
G1 X106.128 Y122.004 E10.40263
G1 X105.445 Y122.307 E10.43991
G1 X104.724 Y122.583 E10.47842
G1 X103.767 Y122.893 E10.52861
G1 X103.24 Y123.042 E10.55593
G1 X102.469 Y123.23 E10.59553
G1 X101.669 Y123.379 E10.63612
G1 X100.76 Y123.497 E10.68185
G1 X100.133 Y123.552 E10.71326
G1 X99.248 Y123.591 E10.75745
G1 X98.545 Y123.588 E10.79252
G1 X97.917 Y123.556 E10.8239
G1 X97.296 Y123.498 E10.85501
G1 X96.017 Y123.324 E10.91941
G1 X95.386 Y123.211 E10.95139
G1 X94.863 Y123.093 E10.97814
G1 X94.242 Y122.924 E11.01025
G1 X93.208 Y122.594 E11.0644
G1 X92.496 Y122.325 E11.10237
G1 X91.839 Y122.038 E11.13814
G1 X91.148 Y121.692 E11.17669
G1 X90.239 Y121.176 E11.22884
G1 X89.647 Y120.802 E11.26378
G1 X88.976 Y120.332 E11.30465
G1 X88.439 Y119.918 E11.33848
G1 X87.812 Y119.387 E11.37947
G1 X87.292 Y118.902 E11.41494
G1 X86.704 Y118.298 E11.457
G1 X86.21 Y117.737 E11.49429
G1 X85.648 Y117.029 E11.53939
G1 X85.232 Y116.45 E11.57496
G1 X84.749 Y115.692 E11.6198
G1 X84.442 Y115.158 E11.65053
G1 X84.248 Y114.784 E11.67155
G1 X84.017 Y114.322 E11.69732
G1 X83.725 Y113.658 E11.73351
G1 X83.433 Y112.895 E11.77427
G1 X83.209 Y112.214 E11.81003
G1 X82.972 Y111.353 E11.85459
G1 X82.795 Y110.524 E11.89688
G1 X82.68 Y109.783 E11.93429
G1 X82.613 Y109.204 E11.96337
G1 X82.565 Y108.556 E11.99579
G1 X82.554 Y108.371 E12.00503
G1 X82.548 Y107.602 E12.0434
G1 X82.623 Y106.837 E12.08175
G1 X82.776 Y106.083 E12.12013
G1 X83.006 Y105.349 E12.15851
G1 X83.312 Y104.643 E12.1969
G1 X83.689 Y103.973 E12.23525
G1 X84.134 Y103.345 E12.27365
G1 X84.428 Y103.01 E12.29589
G1 X84.766 Y102.582 E12.3231
G1 X85.303 Y102.031 E12.36148
G1 X85.894 Y101.539 E12.39985
G1 X86.186 Y101.344 E12.41736
G1 X85.792 Y100.466 E12.46538
G1 X85.679 Y100.151 E12.48207
G1 X85.457 Y99.414 E12.52047
G1 X85.357 Y98.943 E12.54449
G1 X85.259 Y98.18 E12.58287
G1 X85.238 Y97.641 E12.60978
G1 X85.237 Y97.305 E12.62655
G1 X85.275 Y96.537 E12.66491
G1 X85.366 Y95.907 E12.69667
G1 X85.373 Y95.87 E12.69855
G1 X85.555 Y95.123 E12.7369
G1 X85.788 Y94.441 E12.77286
G1 X86.259 Y93.392 E12.83023
G1 X86.277 Y93.359 E12.8321
G1 X86.661 Y92.734 E12.8687
G1 X86.369 Y92.309 E12.89443
G1 X86.002 Y91.633 E12.9328
G1 X85.708 Y90.922 E12.97119
G1 X85.488 Y90.185 E13.00956
G1 X85.347 Y89.429 E13.04793
G1 X85.284 Y88.662 E13.08632
G1 X85.302 Y87.893 E13.1247
G1 X85.399 Y87.13 E13.16307
G1 X85.575 Y86.382 E13.20141
G1 X85.827 Y85.655 E13.23979
G1 X86.154 Y84.959 E13.27816
G1 X86.481 Y84.406 E13.31021
G1 X86.754 Y83.987 E13.33516
G1 X87.207 Y83.366 E13.37351
G1 X87.666 Y82.844 E13.40819
G0 F3600 X87.961 Y83.114
G1 F1800 X88.274 Y82.793 E13.43056
G1 X88.717 Y82.367 E13.46122
G1 X89.277 Y81.883 E13.49815
G1 X89.804 Y81.474 E13.53143
G1 X90.419 Y81.048 E13.56875
G1 X91.268 Y80.601 E13.61662
G1 X93.824 Y79.472 E13.75603
G1 X94.804 Y79.123 E13.80793
G1 X95.33 Y78.979 E13.83513
G1 X96.061 Y78.821 E13.87245
G1 X96.804 Y78.741 E13.90973
G1 X97.559 Y78.742 E13.94739
G1 X97.697 Y78.718 E13.95438
G1 X98.469 Y78.629 E13.99315
G1 X99.804 Y78.55 E14.05987
G1 X100.75 Y78.554 E14.10707
G1 X101.84 Y78.627 E14.16157
G1 X102.495 Y78.702 E14.19446
G1 X102.894 Y78.739 E14.21446
G1 X103.642 Y78.757 E14.25178
G1 X104.384 Y78.855 E14.28912
G1 X104.906 Y78.973 E14.31582
G1 X105.617 Y79.163 E14.35254
G1 X106.655 Y79.53 E14.40747
G1 X109.063 Y80.601 E14.53895
G1 X109.729 Y80.941 E14.57626
G1 X110.534 Y81.486 E14.62476
G1 X111.009 Y81.858 E14.65486
G1 X111.604 Y82.381 E14.69438
G1 X111.992 Y82.763 E14.72154
G1 X112.06 Y82.841 E14.72671
G1 X112.584 Y83.197 E14.75831
G1 X113.154 Y83.682 E14.79565
G1 X113.669 Y84.224 E14.83295
G1 X114.123 Y84.819 E14.87029
G1 X114.495 Y85.428 E14.90589
G1 X114.712 Y85.828 E14.9286
G1 X115.108 Y86.693 E14.97606
G1 X115.327 Y87.273 E15.00699
G1 X115.617 Y88.252 E15.05793
G1 X115.655 Y88.426 E15.06681
G1 X115.775 Y89.165 E15.10417
G1 X115.816 Y89.912 E15.14149
G1 X115.777 Y90.659 E15.17881
G1 X115.658 Y91.397 E15.2161
G1 X115.462 Y92.119 E15.25343
G1 X115.189 Y92.816 E15.29077
G1 X114.844 Y93.479 E15.32806
G1 X114.429 Y94.102 E15.36541
G1 X113.951 Y94.677 E15.40271
G1 X113.41 Y95.201 E15.44029
G1 X113.61 Y95.688 E15.46655
G1 X113.739 Y96.044 E15.48544
G1 X113.956 Y96.76 E15.52277
G1 X114.049 Y97.199 E15.54516
G1 X114.145 Y97.941 E15.58249
G1 X114.165 Y98.467 E15.60875
G1 X114.165 Y98.834 E15.62706
G1 X114.125 Y99.581 E15.66438
G1 X114.052 Y100.084 E15.68974
G1 X113.883 Y100.813 E15.72707
G1 X113.604 Y101.625 E15.76991
G1 X113.174 Y102.576 E15.82198
G1 X113.156 Y102.609 E15.82385
G1 X112.779 Y103.22 E15.85967
G1 X112.844 Y103.275 E15.86392
G1 X113.362 Y103.815 E15.90125
G1 X113.819 Y104.407 E15.93856
G1 X114.21 Y105.044 E15.97585
G1 X114.532 Y105.72 E16.01321
G1 X114.779 Y106.426 E16.05052
G1 X114.949 Y107.154 E16.08782
G1 X115.041 Y107.897 E16.12517
G1 X115.053 Y108.645 E16.16249
G1 X114.985 Y109.39 E16.19982
G1 X114.838 Y110.123 E16.23711
G1 X114.637 Y110.763 E16.27058
G1 X114.54 Y111.228 E16.29428
G1 X114.352 Y111.941 E16.33107
G1 X114.146 Y112.591 E16.36509
G1 X113.814 Y113.486 E16.41271
G1 X113.508 Y114.189 E16.45096
G1 X113.17 Y114.863 E16.48858
G1 X112.791 Y115.526 E16.52668
G1 X112.339 Y116.225 E16.56821
G1 X111.951 Y116.767 E16.60146
G1 X111.398 Y117.466 E16.64593
G1 X110.983 Y117.944 E16.67751
G1 X110.413 Y118.544 E16.7188
G1 X109.822 Y119.099 E16.75925
G1 X109.141 Y119.667 E16.80349
G1 X108.637 Y120.049 E16.83504
G1 X107.931 Y120.537 E16.87786
G1 X107.369 Y120.888 E16.91092
G1 X106.545 Y121.349 E16.95802
G1 X105.966 Y121.639 E16.99033
G1 X105.283 Y121.942 E17.02761
G1 X104.601 Y122.202 E17.06402
G1 X103.644 Y122.512 E17.11421
G1 X103.145 Y122.654 E17.14009
G1 X102.374 Y122.842 E17.17968
G1 X101.617 Y122.983 E17.2181
G1 X100.708 Y123.101 E17.26383
G1 X100.115 Y123.152 E17.29353
G1 X99.23 Y123.191 E17.33772
G1 X98.566 Y123.189 E17.37085
G1 X97.938 Y123.157 E17.40222
G1 X97.35 Y123.102 E17.43168
G1 X96.071 Y122.928 E17.49608
G1 X95.474 Y122.82 E17.52635
G1 X94.951 Y122.702 E17.5531
G1 X94.364 Y122.543 E17.58344
G1 X93.33 Y122.213 E17.63759
G1 X92.656 Y121.959 E17.67352
G1 X91.999 Y121.672 E17.70929
G1 X91.345 Y121.345 E17.74577
G1 X90.436 Y120.829 E17.79792
G1 X89.876 Y120.474 E17.831
G1 X89.205 Y120.004 E17.87187
G1 X88.697 Y119.613 E17.90385
G1 X88.07 Y119.082 E17.94484
G1 X87.578 Y118.623 E17.97841
G1 X86.99 Y118.019 E18.02047
G1 X86.523 Y117.488 E18.05575
G1 X85.961 Y116.78 E18.10084
G1 X85.568 Y116.233 E18.13445
G1 X85.087 Y115.478 E18.17911
G1 X84.796 Y114.973 E18.20819
G1 X84.606 Y114.605 E18.22885
G1 X84.375 Y114.143 E18.25462
G1 X84.098 Y113.515 E18.28886
G1 X83.806 Y112.752 E18.32962
G1 X83.595 Y112.108 E18.36343
G1 X83.358 Y111.247 E18.40799
G1 X83.19 Y110.463 E18.44799
G1 X83.075 Y109.722 E18.4854
G1 X83.012 Y109.174 E18.51292
G1 X82.964 Y108.532 E18.54504
G1 X82.953 Y108.347 E18.55428
G1 X82.949 Y107.599 E18.5916
G1 X83.024 Y106.855 E18.62891
G1 X83.179 Y106.123 E18.66624
G1 X83.41 Y105.412 E18.70353
G1 X83.717 Y104.729 E18.74089
G1 X84.094 Y104.083 E18.77821
G1 X84.538 Y103.481 E18.81553
G1 X84.749 Y103.246 E18.83128
G1 X85.121 Y102.785 E18.86084
G1 X85.65 Y102.256 E18.89816
G1 X86.233 Y101.786 E18.93552
G1 X86.708 Y101.481 E18.96369
G1 X86.612 Y101.319 E18.97308
G1 X86.168 Y100.331 E19.02712
G1 X86.055 Y100.016 E19.04382
G1 X85.841 Y99.299 E19.08115
G1 X85.751 Y98.871 E19.10297
G1 X85.657 Y98.129 E19.14028
