;FLAVOR:Marlin
;TIME:1971
;Filament used: 0.938851m
;Layer height: 0.1
;MINX:66.707
;MINY:92.725
;MINZ:0.3
;MAXX:124.307
;MAXY:127.846
;MAXZ:4
;Generated with Cura_SteamEngine 4.13.1
M140 S60
M105
M190 S60
M104 S200
M105
M109 S200
M82 ;absolute extrusion mode
G21 ;metric values
 G90 ;absolute positioning
 M82 ;set extruder to absolute mode
 M107 ;start with the fan off
 G28 X0 Y0 ;move X/Y to min endstops
 G28 Z0 ;move Z to min endstops
 G1 Z15.0 F120 ;move the platform down 15mm
 G92 E0 ;zero the extruded length
 G1 F200 E6 ;extrude 6 mm of feed stock
 G92 E0 ;zero the extruded length again
 G1 F120 
 ;Put printing message on LCD screen
 M117 Printing...
G92 E0
G92 E0
G1 F1500 E-6.5
;LAYER_COUNT:38
;LAYER:0
M107
G0 F3600 X69.729 Y94.38 Z0.3
;TYPE:SKIRT
G1 F1500 E0
G1 F1800 X70.377 Y93.929 E0.03939
G1 X71.068 Y93.545 E0.07883
G1 X71.793 Y93.233 E0.11821
G1 X72.546 Y92.996 E0.15759
G1 X73.32 Y92.837 E0.19701
G1 X74.211 Y92.752 E0.24166
G1 X74.711 Y92.733 E0.26663
G1 X75.007 Y92.727 E0.2814
G1 X116.507 Y92.725 E2.35184
G1 X117.295 Y92.765 E2.39121
G1 X118.076 Y92.884 E2.43062
G1 X118.84 Y93.082 E2.47
G1 X119.581 Y93.356 E2.50941
G1 X120.29 Y93.704 E2.54881
G1 X120.96 Y94.121 E2.58819
G1 X121.585 Y94.604 E2.62759
G1 X122.158 Y95.148 E2.66701
G1 X122.672 Y95.747 E2.70639
G1 X123.124 Y96.395 E2.74581
G1 X123.508 Y97.085 E2.7852
G1 X123.819 Y97.811 E2.82461
G1 X124.056 Y98.564 E2.86399
G1 X124.216 Y99.337 E2.90337
G1 X124.297 Y100.123 E2.94279
G1 X124.307 Y100.525 E2.96286
G1 X124.307 Y120.046 E3.93676
G1 X124.267 Y120.835 E3.97618
G1 X124.148 Y121.615 E4.01554
G1 X123.95 Y122.38 E4.05497
G1 X123.676 Y123.12 E4.09433
G1 X123.328 Y123.829 E4.13374
G1 X122.91 Y124.5 E4.17318
G1 X122.427 Y125.124 E4.21255
G1 X121.884 Y125.697 E4.25193
G1 X121.285 Y126.212 E4.29134
G1 X120.637 Y126.663 E4.33073
G1 X119.946 Y127.047 E4.37017
G1 X119.221 Y127.359 E4.40955
G1 X118.468 Y127.596 E4.44893
G1 X117.694 Y127.755 E4.48835
G1 X116.909 Y127.836 E4.52772
G1 X116.507 Y127.846 E4.54779
G1 X74.507 Y127.846 E6.64317
G1 X73.718 Y127.806 E6.68259
G1 X72.938 Y127.687 E6.72195
G1 X72.173 Y127.489 E6.76138
G1 X71.433 Y127.215 E6.80074
G1 X70.724 Y126.867 E6.84015
G1 X70.053 Y126.449 E6.87959
G1 X69.429 Y125.966 E6.91896
G1 X68.856 Y125.423 E6.95834
G1 X68.341 Y124.824 E6.99775
G1 X67.89 Y124.176 E7.03714
G1 X67.506 Y123.485 E7.07658
G1 X67.194 Y122.76 E7.11596
G1 X66.957 Y122.007 E7.15534
G1 X66.798 Y121.233 E7.19476
G1 X66.717 Y120.448 E7.23413
G1 X66.707 Y120.046 E7.2542
G1 X66.707 Y100.546 E8.22705
G1 X66.747 Y99.757 E8.26647
G1 X66.866 Y98.977 E8.30583
G1 X67.064 Y98.212 E8.34526
G1 X67.338 Y97.472 E8.38463
G1 X67.686 Y96.763 E8.42403
G1 X68.104 Y96.092 E8.46347
G1 X68.587 Y95.468 E8.50284
G1 X69.13 Y94.895 E8.54222
G1 X69.729 Y94.38 E8.58163
G0 F3600 X70.118 Y94.588
G1 F1800 X70.76 Y94.165 E8.61999
G1 X71.443 Y93.81 E8.65839
G1 X72.158 Y93.529 E8.69672
G1 X72.9 Y93.323 E8.73514
G1 X73.658 Y93.195 E8.77349
G1 X74.226 Y93.151 E8.80191
G1 X74.726 Y93.132 E8.82688
G1 X75.007 Y93.127 E8.8409
G1 X116.507 Y93.125 E10.91134
G1 X117.275 Y93.165 E10.94971
G1 X118.035 Y93.284 E10.98809
G1 X118.778 Y93.482 E11.02645
G1 X119.497 Y93.756 E11.06484
G1 X120.183 Y94.103 E11.10319
G1 X120.83 Y94.519 E11.14157
G1 X121.43 Y95 E11.17993
G1 X121.977 Y95.541 E11.21831
G1 X122.465 Y96.136 E11.25671
G1 X122.888 Y96.778 E11.29506
G1 X123.243 Y97.46 E11.33342
G1 X123.524 Y98.176 E11.3718
G1 X123.73 Y98.917 E11.41017
G1 X123.858 Y99.676 E11.44857
G1 X123.907 Y100.525 E11.49099
G1 X123.907 Y120.046 E12.4649
G1 X123.867 Y120.814 E12.50327
G1 X123.748 Y121.574 E12.54165
G1 X123.55 Y122.317 E12.58001
G1 X123.276 Y123.036 E12.6184
G1 X122.929 Y123.722 E12.65675
G1 X122.513 Y124.369 E12.69513
G1 X122.032 Y124.969 E12.73349
G1 X121.491 Y125.516 E12.77187
G1 X120.896 Y126.004 E12.81027
G1 X120.254 Y126.427 E12.84862
G1 X119.571 Y126.782 E12.88703
G1 X118.856 Y127.063 E12.92535
G1 X118.114 Y127.269 E12.96377
G1 X117.356 Y127.397 E13.00212
G1 X116.507 Y127.446 E13.04455
G1 X74.507 Y127.446 E15.13994
G1 X73.739 Y127.406 E15.17831
G1 X72.979 Y127.287 E15.21669
G1 X72.236 Y127.089 E15.25505
G1 X71.517 Y126.815 E15.29344
G1 X70.831 Y126.468 E15.33179
G1 X70.184 Y126.052 E15.37017
G1 X69.584 Y125.571 E15.40853
G1 X69.037 Y125.03 E15.44691
G1 X68.549 Y124.435 E15.48531
G1 X68.126 Y123.793 E15.52366
G1 X67.771 Y123.11 E15.56207
G1 X67.49 Y122.395 E15.60039
G1 X67.284 Y121.653 E15.63881
G1 X67.156 Y120.895 E15.67716
G1 X67.107 Y120.046 E15.71959
G1 X67.107 Y100.546 E16.69245
G1 X67.147 Y99.778 E16.73082
G1 X67.266 Y99.018 E16.7692
G1 X67.464 Y98.275 E16.80756
G1 X67.738 Y97.556 E16.84595
G1 X68.085 Y96.87 E16.8843
G1 X68.501 Y96.223 E16.92267
G1 X68.982 Y95.623 E16.96104
G1 X69.523 Y95.076 E16.99942
G1 X70.118 Y94.588 E17.03781
G0 F3600 X70.505 Y94.803
G1 F1800 X71.141 Y94.408 E17.07517
G1 X71.815 Y94.084 E17.11248
G1 X72.52 Y93.834 E17.14979
G1 X73.248 Y93.66 E17.18714
G1 X74.241 Y93.551 E17.23698
G1 X74.741 Y93.532 E17.26194
G1 X75.007 Y93.527 E17.27521
G1 X116.507 Y93.525 E19.34566
G1 X117.254 Y93.565 E19.38298
G1 X117.992 Y93.684 E19.42027
G1 X118.714 Y93.882 E19.45762
G1 X119.41 Y94.155 E19.49492
G1 X120.073 Y94.501 E19.53223
G1 X120.696 Y94.916 E19.56958
G1 X121.27 Y95.395 E19.60688
G1 X121.79 Y95.933 E19.64421
G1 X122.25 Y96.523 E19.68153
G1 X122.644 Y97.159 E19.71886
G1 X122.969 Y97.833 E19.75619
G1 X123.219 Y98.538 E19.79351
G1 X123.393 Y99.265 E19.8308
G1 X123.488 Y100.007 E19.86812
G1 X123.507 Y100.525 E19.89398
G1 X123.507 Y120.046 E20.86789
G1 X123.467 Y120.793 E20.90521
G1 X123.348 Y121.531 E20.9425
G1 X123.15 Y122.253 E20.97985
G1 X122.877 Y122.949 E21.01715
G1 X122.53 Y123.612 E21.05449
G1 X122.115 Y124.235 E21.09183
G1 X121.636 Y124.809 E21.12913
G1 X121.099 Y125.33 E21.16646
G1 X120.509 Y125.789 E21.20375
G1 X119.873 Y126.184 E21.24111
G1 X119.199 Y126.508 E21.27841
G1 X118.494 Y126.758 E21.31573
G1 X117.766 Y126.932 E21.35308
G1 X117.024 Y127.027 E21.3904
G1 X116.507 Y127.046 E21.41621
G1 X74.507 Y127.046 E23.5116
G1 X73.76 Y127.006 E23.54892
G1 X73.022 Y126.887 E23.58621
G1 X72.3 Y126.689 E23.62356
G1 X71.604 Y126.416 E23.66086
G1 X70.941 Y126.069 E23.6982
G1 X70.318 Y125.654 E23.73554
G1 X69.744 Y125.175 E23.77284
G1 X69.223 Y124.638 E23.81017
G1 X68.764 Y124.048 E23.84746
G1 X68.369 Y123.412 E23.88481
G1 X68.045 Y122.738 E23.92212
G1 X67.795 Y122.033 E23.95944
G1 X67.621 Y121.305 E23.99679
G1 X67.526 Y120.563 E24.03411
G1 X67.507 Y120.046 E24.05992
G1 X67.507 Y100.546 E25.03278
G1 X67.547 Y99.799 E25.0701
G1 X67.666 Y99.061 E25.10739
G1 X67.864 Y98.339 E25.14474
G1 X68.137 Y97.643 E25.18204
G1 X68.484 Y96.98 E25.21937
G1 X68.899 Y96.357 E25.25672
G1 X69.378 Y95.783 E25.29402
G1 X69.915 Y95.262 E25.33135
G1 X70.505 Y94.803 E25.36864
G0 F3600 X70.306 Y95.455
G1 F1800 X70.891 Y95.025 E25.40486
G1 X71.52 Y94.661 E25.44112
G1 X72.185 Y94.368 E25.47737
G1 X72.878 Y94.15 E25.51362
G1 X73.59 Y94.01 E25.54982
G1 X74.256 Y93.951 E25.58318
G1 X74.756 Y93.932 E25.60814
G1 X75.007 Y93.927 E25.62067
G1 X116.507 Y93.925 E27.69111
G1 X117.232 Y93.965 E27.72733
G1 X117.948 Y94.084 E27.76355
G1 X118.647 Y94.282 E27.79979
G1 X119.321 Y94.555 E27.83607
G1 X119.96 Y94.9 E27.8723
G1 X120.557 Y95.314 E27.90855
G1 X121.105 Y95.79 E27.94476
G1 X121.597 Y96.324 E27.98098
G1 X122.028 Y96.909 E28.01724
G1 X122.392 Y97.537 E28.05345
G1 X122.685 Y98.202 E28.0897
G1 X122.903 Y98.895 E28.12595
G1 X123.043 Y99.608 E28.1622
G1 X123.107 Y100.525 E28.20806
G1 X123.107 Y120.046 E29.18197
G1 X123.067 Y120.771 E29.21819
G1 X122.948 Y121.488 E29.25445
G1 X122.75 Y122.187 E29.2907
G1 X122.477 Y122.86 E29.32693
G1 X122.132 Y123.499 E29.36316
G1 X121.718 Y124.096 E29.39941
G1 X121.242 Y124.644 E29.43562
G1 X120.708 Y125.137 E29.47188
G1 X120.123 Y125.567 E29.5081
G1 X119.494 Y125.931 E29.54436
G1 X118.829 Y126.224 E29.58061
G1 X118.136 Y126.442 E29.61686
G1 X117.424 Y126.582 E29.65306
G1 X116.507 Y126.646 E29.69892
G1 X74.507 Y126.646 E31.79431
G1 X73.782 Y126.606 E31.83053
G1 X73.065 Y126.487 E31.86679
G1 X72.366 Y126.289 E31.90304
G1 X71.693 Y126.016 E31.93927
G1 X71.054 Y125.671 E31.9755
G1 X70.457 Y125.257 E32.01175
G1 X69.909 Y124.781 E32.04796
G1 X69.416 Y124.247 E32.08422
G1 X68.986 Y123.662 E32.12044
G1 X68.622 Y123.033 E32.1567
G1 X68.329 Y122.368 E32.19295
G1 X68.111 Y121.675 E32.2292
G1 X67.971 Y120.963 E32.2654
G1 X67.907 Y120.046 E32.31126
G1 X67.907 Y100.546 E33.28412
G1 X67.947 Y99.821 E33.32034
G1 X68.066 Y99.104 E33.3566
G1 X68.264 Y98.405 E33.39285
G1 X68.537 Y97.732 E33.42908
G1 X68.882 Y97.093 E33.46531
G1 X69.296 Y96.496 E33.50156
G1 X69.772 Y95.948 E33.53777
G1 X70.306 Y95.455 E33.57403
G0 F3600 X70.696 Y95.655
G1 F1800 X71.275 Y95.255 E33.60914
G1 X71.896 Y94.923 E33.64427
G1 X72.55 Y94.663 E33.67938
G1 X73.23 Y94.479 E33.71453
G1 X74.272 Y94.35 E33.76691
G1 X74.772 Y94.331 E33.79188
G1 X75.007 Y94.327 E33.8036
G1 X116.507 Y94.325 E35.87404
G1 X117.21 Y94.365 E35.90917
G1 X117.903 Y94.484 E35.94425
G1 X118.579 Y94.682 E35.9794
G1 X119.228 Y94.954 E36.0145
G1 X119.842 Y95.298 E36.04962
G1 X120.413 Y95.71 E36.08475
G1 X120.934 Y96.184 E36.11989
G1 X121.397 Y96.714 E36.155
G1 X121.798 Y97.293 E36.19013
G1 X122.13 Y97.914 E36.22527
G1 X122.39 Y98.568 E36.26038
G1 X122.574 Y99.247 E36.29547
G1 X122.68 Y99.943 E36.3306
G1 X122.707 Y100.525 E36.35967
G1 X122.707 Y120.046 E37.33357
G1 X122.667 Y120.749 E37.3687
G1 X122.548 Y121.443 E37.40383
G1 X122.35 Y122.118 E37.43893
G1 X122.078 Y122.767 E37.47403
G1 X121.733 Y123.381 E37.50917
G1 X121.322 Y123.952 E37.54427
G1 X120.848 Y124.473 E37.57941
G1 X120.318 Y124.937 E37.61455
G1 X119.739 Y125.337 E37.64966
G1 X119.118 Y125.669 E37.68479
G1 X118.464 Y125.929 E37.71991
G1 X117.784 Y126.113 E37.75505
G1 X117.088 Y126.219 E37.79018
G1 X116.507 Y126.246 E37.81919
G1 X74.507 Y126.246 E39.91458
G1 X73.804 Y126.206 E39.94971
G1 X73.11 Y126.087 E39.98484
G1 X72.435 Y125.889 E40.01994
G1 X71.786 Y125.617 E40.05504
G1 X71.172 Y125.272 E40.09018
G1 X70.601 Y124.861 E40.12528
G1 X70.08 Y124.387 E40.16042
G1 X69.616 Y123.857 E40.19556
G1 X69.216 Y123.278 E40.23067
G1 X68.884 Y122.657 E40.2658
G1 X68.624 Y122.003 E40.30092
G1 X68.44 Y121.323 E40.33606
G1 X68.334 Y120.627 E40.37119
G1 X68.307 Y120.046 E40.4002
G1 X68.307 Y100.546 E41.37306
G1 X68.347 Y99.843 E41.40819
G1 X68.466 Y99.149 E41.44332
G1 X68.664 Y98.474 E41.47842
G1 X68.936 Y97.825 E41.51352
G1 X69.281 Y97.211 E41.54866
G1 X69.692 Y96.64 E41.58376
G1 X70.166 Y96.119 E41.6189
G1 X70.696 Y95.655 E41.65404
G0 F3600 X71.085 Y95.863
G1 F1800 X71.657 Y95.494 E41.688
G1 X72.269 Y95.195 E41.72199
G1 X72.911 Y94.97 E41.75592
G1 X73.576 Y94.821 E41.78992
G1 X74.287 Y94.75 E41.82557
G1 X74.787 Y94.731 E41.85054
G1 X75.007 Y94.727 E41.86151
G1 X116.507 Y94.725 E43.93196
G1 X117.186 Y94.765 E43.96589
G1 X117.857 Y94.884 E43.99989
G1 X118.509 Y95.081 E44.03387
G1 X119.133 Y95.353 E44.06783
G1 X119.721 Y95.697 E44.10182
G1 X120.264 Y96.107 E44.13576
G1 X120.756 Y96.577 E44.16971
G1 X121.19 Y97.103 E44.20373
G1 X121.558 Y97.675 E44.23766
G1 X121.858 Y98.287 E44.27167
G1 X122.083 Y98.929 E44.30561
G1 X122.232 Y99.593 E44.33956
G1 X122.307 Y100.525 E44.38621
G1 X122.307 Y120.046 E45.36011
G1 X122.267 Y120.726 E45.3941
G1 X122.148 Y121.396 E45.42805
G1 X121.951 Y122.048 E45.46203
G1 X121.679 Y122.672 E45.49599
G1 X121.335 Y123.26 E45.52998
G1 X120.925 Y123.804 E45.56396
G1 X120.454 Y124.295 E45.5979
G1 X119.929 Y124.729 E45.63189
G1 X119.357 Y125.098 E45.66585
G1 X118.745 Y125.397 E45.69983
G1 X118.103 Y125.622 E45.73377
G1 X117.438 Y125.771 E45.76777
G1 X116.507 Y125.846 E45.81437
G1 X74.507 Y125.846 E47.90976
G1 X73.827 Y125.806 E47.94374
G1 X73.157 Y125.687 E47.97769
G1 X72.505 Y125.49 E48.01167
G1 X71.881 Y125.218 E48.04563
G1 X71.293 Y124.874 E48.07962
G1 X70.749 Y124.464 E48.1136
G1 X70.258 Y123.993 E48.14755
G1 X69.824 Y123.468 E48.18153
G1 X69.455 Y122.896 E48.21549
G1 X69.156 Y122.284 E48.24947
G1 X68.931 Y121.642 E48.28341
G1 X68.782 Y120.977 E48.31741
G1 X68.707 Y120.046 E48.36401
G1 X68.707 Y100.546 E49.33687
G1 X68.747 Y99.866 E49.37085
G1 X68.866 Y99.196 E49.4048
G1 X69.063 Y98.544 E49.43878
G1 X69.335 Y97.92 E49.47274
G1 X69.679 Y97.332 E49.50673
G1 X70.089 Y96.788 E49.54072
G1 X70.56 Y96.297 E49.57466
G1 X71.085 Y95.863 E49.60864
G0 F3600 X70.952 Y96.481
G1 F1800 X71.472 Y96.08 E49.64141
G1 X72.036 Y95.744 E49.67416
G1 X72.638 Y95.48 E49.70695
G1 X73.267 Y95.29 E49.73973
G1 X73.914 Y95.179 E49.77248
G1 X74.302 Y95.15 E49.7919
G1 X74.802 Y95.131 E49.81686
G1 X75.007 Y95.127 E49.82709
G1 X116.507 Y95.125 E51.89753
G1 X117.162 Y95.165 E51.93027
G1 X117.809 Y95.284 E51.96309
G1 X118.435 Y95.481 E51.99583
G1 X119.034 Y95.753 E52.02865
G1 X119.594 Y96.095 E52.06139
G1 X120.11 Y96.502 E52.09418
G1 X120.571 Y96.97 E52.12695
G1 X120.973 Y97.489 E52.1597
G1 X121.309 Y98.054 E52.1925
G1 X121.573 Y98.656 E52.22529
G1 X121.763 Y99.285 E52.25808
G1 X121.874 Y99.932 E52.29083
G1 X121.907 Y100.525 E52.32046
G1 X121.907 Y120.046 E53.29436
G1 X121.867 Y120.702 E53.32715
G1 X121.748 Y121.348 E53.35992
G1 X121.551 Y121.975 E53.39271
G1 X121.279 Y122.573 E53.42549
G1 X120.937 Y123.134 E53.45827
G1 X120.529 Y123.649 E53.49105
G1 X120.062 Y124.111 E53.52382
G1 X119.542 Y124.512 E53.55658
G1 X118.978 Y124.848 E53.58933
G1 X118.376 Y125.112 E53.62213
G1 X117.747 Y125.302 E53.65491
G1 X117.1 Y125.413 E53.68766
G1 X116.507 Y125.446 E53.71729
G1 X74.507 Y125.446 E55.81268
G1 X73.851 Y125.406 E55.84547
G1 X73.205 Y125.287 E55.87824
G1 X72.578 Y125.09 E55.91103
G1 X71.98 Y124.818 E55.9438
G1 X71.419 Y124.476 E55.97658
G1 X70.904 Y124.068 E56.00936
G1 X70.442 Y123.601 E56.04214
G1 X70.041 Y123.081 E56.0749
G1 X69.705 Y122.517 E56.10765
G1 X69.441 Y121.915 E56.14045
G1 X69.251 Y121.286 E56.17323
G1 X69.14 Y120.639 E56.20598
G1 X69.107 Y120.046 E56.23561
G1 X69.107 Y100.546 E57.20847
G1 X69.147 Y99.89 E57.24126
G1 X69.266 Y99.244 E57.27403
G1 X69.463 Y98.617 E57.30682
G1 X69.735 Y98.019 E57.33959
G1 X70.077 Y97.458 E57.37237
G1 X70.485 Y96.943 E57.40515
G1 X70.952 Y96.481 E57.43792
G0 F3600 X71.343 Y96.675
G1 F1800 X71.857 Y96.306 E57.46949
G1 X72.413 Y96.006 E57.50101
G1 X73.002 Y95.778 E57.53252
G1 X73.616 Y95.626 E57.56408
G1 X74.317 Y95.55 E57.59926
G1 X74.817 Y95.531 E57.62422
G1 X75.007 Y95.527 E57.6337
G1 X116.507 Y95.525 E59.70414
G1 X117.138 Y95.565 E59.73569
G1 X117.758 Y95.684 E59.76718
G1 X118.359 Y95.881 E59.79874
G1 X118.93 Y96.152 E59.83027
G1 X119.463 Y96.492 E59.86181
G1 X119.948 Y96.897 E59.89334
G1 X120.378 Y97.361 E59.9249
G1 X120.747 Y97.874 E59.95642
G1 X121.047 Y98.43 E59.98794
G1 X121.275 Y99.02 E60.0195
G1 X121.427 Y99.634 E60.05106
G1 X121.507 Y100.525 E60.09569
G1 X121.507 Y120.046 E61.06959
G1 X121.467 Y120.677 E61.10114
G1 X121.348 Y121.298 E61.13268
G1 X121.151 Y121.898 E61.16419
G1 X120.88 Y122.47 E61.19577
G1 X120.54 Y123.002 E61.22727
G1 X120.134 Y123.487 E61.25882
G1 X119.671 Y123.917 E61.29035
G1 X119.157 Y124.286 E61.32191
G1 X118.601 Y124.586 E61.35343
G1 X118.012 Y124.814 E61.38494
G1 X117.398 Y124.966 E61.4165
G1 X116.507 Y125.046 E61.46113
G1 X74.507 Y125.046 E63.55652
G1 X73.876 Y125.006 E63.58806
G1 X73.255 Y124.887 E63.61961
G1 X72.655 Y124.69 E63.65112
G1 X72.083 Y124.419 E63.68269
G1 X71.551 Y124.079 E63.71419
G1 X71.066 Y123.673 E63.74575
G1 X70.636 Y123.21 E63.77727
G1 X70.267 Y122.696 E63.80884
G1 X69.967 Y122.14 E63.84036
G1 X69.739 Y121.551 E63.87187
G1 X69.587 Y120.937 E63.90343
G1 X69.507 Y120.046 E63.94806
G1 X69.507 Y100.546 E64.92092
G1 X69.547 Y99.915 E64.95246
G1 X69.666 Y99.294 E64.98401
G1 X69.863 Y98.694 E65.01551
G1 X70.134 Y98.122 E65.04709
G1 X70.474 Y97.59 E65.07859
G1 X70.88 Y97.105 E65.11015
G1 X71.343 Y96.675 E65.14167
G0 F3600 X71.732 Y96.877
G1 F1800 X72.239 Y96.544 E65.17193
G1 X72.785 Y96.28 E65.20219
G1 X73.361 Y96.091 E65.23243
G1 X73.957 Y95.979 E65.26269
G1 X74.332 Y95.949 E65.28146
G1 X74.832 Y95.93 E65.30642
G1 X75.007 Y95.927 E65.31515
G1 X116.507 Y95.925 E67.3856
G1 X117.112 Y95.965 E67.41585
G1 X117.706 Y96.084 E67.44607
G1 X118.28 Y96.28 E67.47633
G1 X118.823 Y96.55 E67.50658
G1 X119.325 Y96.889 E67.53681
