;FLAVOR:Marlin
;TIME:1740
;Filament used: 1.47658m
;Layer height: 0.2
;MINX:85.2
;MINY:77.7
;MINZ:0.3
;MAXX:114.8
;MAXY:122.3
;MAXZ:26.1
;Generated with Cura_SteamEngine 4.13.1
M140 S60
M105
M190 S60
M104 S200
M105
M109 S200
M82 ;absolute extrusion mode
G21 ;metric values
 G90 ;absolute positioning
 M82 ;set extruder to absolute mode
 M107 ;start with the fan off
 G28 X0 Y0 ;move X/Y to min endstops
 G28 Z0 ;move Z to min endstops
 G1 Z15.0 F120 ;move the platform down 15mm
 G92 E0 ;zero the extruded length
 G1 F200 E6 ;extrude 6 mm of feed stock
 G92 E0 ;zero the extruded length again
 G1 F120 
 ;Put printing message on LCD screen
 M117 Printing...
G92 E0
G92 E0
G1 F1500 E-6.5
;LAYER_COUNT:130
;LAYER:0
M107
G0 F3600 X89.08 Y80.539 Z0.3
;TYPE:SKIRT
G1 F1500 E0
G1 F1800 X89.485 Y80.102 E0.02973
G1 X89.602 Y79.985 E0.03798
G1 X90.188 Y79.455 E0.0774
G1 X90.824 Y78.988 E0.11677
G1 X91.504 Y78.587 E0.15615
G1 X92.222 Y78.257 E0.19557
G1 X92.969 Y78.002 E0.23495
G1 X93.738 Y77.823 E0.27434
G1 X94.522 Y77.723 E0.31378
G1 X95.117 Y77.7 E0.34348
G1 X104.883 Y77.7 E0.83071
G1 X105.672 Y77.74 E0.87012
G1 X106.452 Y77.859 E0.90949
G1 X107.217 Y78.057 E0.94891
G1 X107.957 Y78.331 E0.98828
G1 X108.666 Y78.679 E1.02768
G1 X109.337 Y79.097 E1.06712
G1 X109.961 Y79.58 E1.10649
G1 X110.398 Y79.985 E1.13622
G1 X110.515 Y80.102 E1.14447
G1 X111.045 Y80.688 E1.18389
G1 X111.512 Y81.324 E1.22326
G1 X111.913 Y82.004 E1.26264
G1 X112.243 Y82.722 E1.30207
G1 X112.498 Y83.469 E1.34144
G1 X112.677 Y84.238 E1.38084
G1 X112.777 Y85.022 E1.42027
G1 X112.8 Y85.617 E1.44997
G1 X112.8 Y92.25 E1.7809
G1 X112.76 Y93.039 E1.82031
G1 X112.641 Y93.819 E1.85967
G1 X112.443 Y94.584 E1.8991
G1 X112.169 Y95.324 E1.93847
G1 X111.885 Y95.902 E1.9706
G1 X112.012 Y96.074 E1.98126
G1 X112.413 Y96.754 E2.02065
G1 X112.743 Y97.472 E2.06007
G1 X112.998 Y98.219 E2.09945
G1 X113.177 Y98.988 E2.13884
G1 X113.277 Y99.772 E2.17827
G1 X113.3 Y100.367 E2.20798
G1 X113.3 Y106.133 E2.49565
G1 X113.26 Y106.922 E2.53506
G1 X113.141 Y107.702 E2.57442
G1 X112.943 Y108.467 E2.61385
G1 X112.793 Y108.871 E2.63535
G1 X113.085 Y109.199 E2.65726
G1 X113.547 Y109.839 E2.69664
G1 X113.942 Y110.523 E2.73604
G1 X114.266 Y111.243 E2.77543
G1 X114.516 Y111.992 E2.81483
G1 X114.688 Y112.763 E2.85424
G1 X114.782 Y113.547 E2.89363
G1 X114.8 Y114.079 E2.92019
G1 X114.8 Y114.383 E2.93536
G1 X114.76 Y115.172 E2.97477
G1 X114.641 Y115.952 E3.01414
G1 X114.443 Y116.717 E3.05356
G1 X114.169 Y117.457 E3.09293
G1 X113.821 Y118.166 E3.13233
G1 X113.403 Y118.837 E3.17177
G1 X112.92 Y119.461 E3.21114
G1 X112.515 Y119.898 E3.24086
G1 X112.398 Y120.015 E3.24912
G1 X111.812 Y120.545 E3.28854
G1 X111.176 Y121.012 E3.3279
G1 X110.496 Y121.413 E3.36729
G1 X109.778 Y121.743 E3.40671
G1 X109.031 Y121.998 E3.44609
G1 X108.262 Y122.177 E3.48548
G1 X107.478 Y122.277 E3.52491
G1 X106.883 Y122.3 E3.55462
G1 X93.117 Y122.3 E4.24141
G1 X92.328 Y122.26 E4.28082
G1 X91.548 Y122.141 E4.32019
G1 X90.783 Y121.943 E4.35961
G1 X90.043 Y121.669 E4.39898
G1 X89.334 Y121.321 E4.43838
G1 X88.663 Y120.903 E4.47782
G1 X88.039 Y120.42 E4.51719
G1 X87.602 Y120.015 E4.54692
G1 X87.485 Y119.898 E4.55517
G1 X86.955 Y119.312 E4.59459
G1 X86.488 Y118.676 E4.63396
G1 X86.087 Y117.996 E4.67334
G1 X85.757 Y117.278 E4.71276
G1 X85.502 Y116.531 E4.75214
G1 X85.323 Y115.762 E4.79154
G1 X85.223 Y114.978 E4.83097
G1 X85.2 Y114.383 E4.86067
G1 X85.2 Y114.124 E4.87359
G1 X85.24 Y113.335 E4.91301
G1 X85.359 Y112.555 E4.95237
G1 X85.557 Y111.79 E4.9918
G1 X85.831 Y111.05 E5.03117
G1 X86.179 Y110.341 E5.07057
G1 X86.597 Y109.67 E5.11001
G1 X87.039 Y109.098 E5.14607
G1 X87.007 Y109.028 E5.14991
G1 X86.752 Y108.281 E5.18929
G1 X86.573 Y107.512 E5.22868
G1 X86.473 Y106.728 E5.26812
G1 X86.45 Y106.133 E5.29782
G1 X86.45 Y100.367 E5.58549
G1 X86.49 Y99.578 E5.6249
G1 X86.609 Y98.798 E5.66427
G1 X86.807 Y98.033 E5.70369
G1 X87.081 Y97.293 E5.74306
G1 X87.429 Y96.584 E5.78246
G1 X87.847 Y95.913 E5.8219
G1 X87.999 Y95.689 E5.83541
G1 X87.687 Y94.964 E5.87479
G1 X87.45 Y94.211 E5.91417
G1 X87.291 Y93.437 E5.95359
G1 X87.21 Y92.652 E5.99296
G1 X87.2 Y92.25 E6.01303
G1 X87.2 Y85.617 E6.34395
G1 X87.24 Y84.828 E6.38336
G1 X87.359 Y84.048 E6.42273
G1 X87.557 Y83.283 E6.46215
G1 X87.831 Y82.543 E6.50152
G1 X88.179 Y81.834 E6.54092
G1 X88.597 Y81.163 E6.58036
G1 X89.08 Y80.539 E6.61973
G0 F3600 X89.475 Y80.694
G1 F1800 X89.884 Y80.267 E6.64923
G1 X90.456 Y79.753 E6.68759
G1 X91.078 Y79.3 E6.72598
G1 X91.743 Y78.914 E6.76435
G1 X92.445 Y78.599 E6.80273
G1 X93.176 Y78.359 E6.84112
G1 X93.927 Y78.196 E6.87946
G1 X94.692 Y78.112 E6.91785
G1 X95.117 Y78.1 E6.93906
G1 X104.883 Y78.1 E7.42629
G1 X105.651 Y78.14 E7.46466
G1 X106.411 Y78.259 E7.50304
G1 X107.154 Y78.457 E7.5414
G1 X107.873 Y78.731 E7.57979
G1 X108.559 Y79.078 E7.61814
G1 X109.206 Y79.494 E7.65652
G1 X109.806 Y79.975 E7.69488
G1 X110.233 Y80.384 E7.72438
G1 X110.747 Y80.956 E7.76275
G1 X111.2 Y81.578 E7.80114
G1 X111.586 Y82.243 E7.8395
G1 X111.901 Y82.945 E7.87789
G1 X112.141 Y83.676 E7.91627
G1 X112.304 Y84.427 E7.95461
G1 X112.388 Y85.192 E7.99301
G1 X112.4 Y85.617 E8.01422
G1 X112.4 Y92.25 E8.34514
G1 X112.36 Y93.018 E8.38351
G1 X112.241 Y93.778 E8.42189
G1 X112.043 Y94.521 E8.46025
G1 X111.769 Y95.24 E8.49864
G1 X111.415 Y95.937 E8.53764
G1 X111.7 Y96.328 E8.56178
G1 X112.086 Y96.993 E8.60014
G1 X112.401 Y97.695 E8.63852
G1 X112.641 Y98.426 E8.67691
G1 X112.804 Y99.177 E8.71525
G1 X112.888 Y99.942 E8.75364
G1 X112.9 Y100.367 E8.77486
G1 X112.9 Y106.133 E9.06252
G1 X112.86 Y106.901 E9.10089
G1 X112.741 Y107.661 E9.13927
G1 X112.543 Y108.404 E9.17763
G1 X112.333 Y108.956 E9.2071
G1 X112.413 Y109.034 E9.21267
G1 X112.908 Y109.623 E9.25105
G1 X113.338 Y110.26 E9.2894
G1 X113.701 Y110.939 E9.32781
G1 X113.99 Y111.651 E9.36615
G1 X114.205 Y112.39 E9.40454
G1 X114.341 Y113.147 E9.44292
G1 X114.4 Y114.079 E9.48951
G1 X114.4 Y114.383 E9.50467
G1 X114.36 Y115.151 E9.54304
G1 X114.241 Y115.911 E9.58142
G1 X114.043 Y116.654 E9.61978
G1 X113.769 Y117.373 E9.65817
G1 X113.422 Y118.059 E9.69652
G1 X113.006 Y118.706 E9.7349
G1 X112.525 Y119.306 E9.77326
G1 X112.116 Y119.733 E9.80276
G1 X111.544 Y120.247 E9.84113
G1 X110.922 Y120.7 E9.87952
G1 X110.257 Y121.086 E9.91788
G1 X109.555 Y121.401 E9.95627
G1 X108.824 Y121.641 E9.99465
G1 X108.073 Y121.804 E10.03299
G1 X107.308 Y121.888 E10.07139
G1 X106.883 Y121.9 E10.0926
G1 X93.117 Y121.9 E10.77939
G1 X92.349 Y121.86 E10.81776
G1 X91.589 Y121.741 E10.85613
G1 X90.846 Y121.543 E10.8945
G1 X90.127 Y121.269 E10.93288
G1 X89.441 Y120.922 E10.97124
G1 X88.794 Y120.506 E11.00961
G1 X88.194 Y120.025 E11.04798
G1 X87.767 Y119.616 E11.07748
G1 X87.253 Y119.044 E11.11584
G1 X86.8 Y118.422 E11.15423
G1 X86.414 Y117.757 E11.19259
G1 X86.099 Y117.055 E11.23098
G1 X85.859 Y116.324 E11.26937
G1 X85.696 Y115.573 E11.30771
G1 X85.612 Y114.808 E11.3461
G1 X85.6 Y114.124 E11.38023
G1 X85.64 Y113.356 E11.4186
G1 X85.759 Y112.596 E11.45698
G1 X85.957 Y111.853 E11.49534
G1 X86.231 Y111.134 E11.53373
G1 X86.578 Y110.448 E11.57208
G1 X86.994 Y109.801 E11.61046
G1 X87.475 Y109.201 E11.64882
G1 X87.511 Y109.165 E11.65136
G1 X87.349 Y108.805 E11.67106
G1 X87.109 Y108.074 E11.70944
G1 X86.946 Y107.323 E11.74778
G1 X86.862 Y106.558 E11.78618
G1 X86.85 Y106.133 E11.80739
G1 X86.85 Y100.367 E12.09506
G1 X86.89 Y99.599 E12.13342
G1 X87.009 Y98.839 E12.1718
G1 X87.207 Y98.096 E12.21016
G1 X87.481 Y97.377 E12.24855
G1 X87.828 Y96.691 E12.28691
G1 X88.244 Y96.044 E12.32528
G1 X88.486 Y95.742 E12.34459
G1 X88.264 Y95.314 E12.36864
G1 X87.983 Y94.599 E12.40697
G1 X87.777 Y93.857 E12.44539
G1 X87.649 Y93.099 E12.48374
G1 X87.6 Y92.25 E12.52617
G1 X87.6 Y85.617 E12.85709
G1 X87.64 Y84.849 E12.89546
G1 X87.759 Y84.089 E12.93384
G1 X87.957 Y83.346 E12.9722
G1 X88.231 Y82.627 E13.01059
G1 X88.578 Y81.941 E13.04894
G1 X88.994 Y81.294 E13.08732
G1 X89.475 Y80.694 E13.12568
G0 F3600 X89.392 Y81.428
G1 F1800 X90.05 Y80.667 E13.17587
G1 X90.167 Y80.55 E13.18413
G1 X90.724 Y80.05 E13.22147
G1 X91.33 Y79.613 E13.25874
G1 X91.98 Y79.242 E13.29608
G1 X92.666 Y78.943 E13.33342
G1 X93.38 Y78.719 E13.37075
G1 X94.113 Y78.572 E13.40805
G1 X95.117 Y78.5 E13.45827
G1 X104.883 Y78.5 E13.9455
G1 X105.63 Y78.54 E13.98282
G1 X106.368 Y78.659 E14.02011
G1 X107.09 Y78.857 E14.05746
G1 X107.786 Y79.13 E14.09476
G1 X108.449 Y79.477 E14.13209
G1 X109.072 Y79.892 E14.16944
G1 X109.833 Y80.55 E14.21963
G1 X109.95 Y80.667 E14.22789
G1 X110.45 Y81.224 E14.26523
G1 X110.887 Y81.83 E14.3025
G1 X111.258 Y82.48 E14.33984
G1 X111.557 Y83.166 E14.37718
G1 X111.781 Y83.88 E14.41451
G1 X111.928 Y84.613 E14.45181
G1 X112 Y85.617 E14.50203
G1 X112 Y92.25 E14.83295
G1 X111.96 Y92.997 E14.87027
G1 X111.841 Y93.735 E14.90756
G1 X111.643 Y94.457 E14.94492
G1 X111.37 Y95.153 E14.98221
G1 X111.023 Y95.816 E15.01955
G1 X110.931 Y95.953 E15.02778
G1 X110.95 Y95.974 E15.02919
G1 X111.387 Y96.58 E15.06647
G1 X111.758 Y97.23 E15.10381
G1 X112.057 Y97.916 E15.14114
G1 X112.281 Y98.63 E15.17848
G1 X112.428 Y99.363 E15.21577
G1 X112.5 Y100.367 E15.26599
G1 X112.5 Y106.133 E15.55366
G1 X112.46 Y106.88 E15.59098
G1 X112.341 Y107.618 E15.62827
G1 X112.143 Y108.34 E15.66562
G1 X111.87 Y109.036 E15.70292
G1 X111.861 Y109.053 E15.70388
G1 X112.258 Y109.458 E15.73218
G1 X112.721 Y110.046 E15.76952
G1 X113.119 Y110.68 E15.80686
G1 X113.447 Y111.352 E15.84417
G1 X113.701 Y112.055 E15.88146
G1 X113.879 Y112.782 E15.9188
G1 X113.978 Y113.524 E15.95615
G1 X114 Y114.079 E15.98386
G1 X114 Y114.383 E15.99903
G1 X113.96 Y115.13 E16.03635
G1 X113.841 Y115.868 E16.07364
G1 X113.643 Y116.59 E16.11099
G1 X113.37 Y117.286 E16.14829
G1 X113.023 Y117.949 E16.18563
G1 X112.608 Y118.572 E16.22297
G1 X111.95 Y119.333 E16.27316
G1 X111.833 Y119.45 E16.28142
G1 X111.276 Y119.95 E16.31876
G1 X110.67 Y120.387 E16.35604
G1 X110.02 Y120.758 E16.39337
G1 X109.334 Y121.057 E16.43071
G1 X108.62 Y121.281 E16.46804
G1 X107.887 Y121.428 E16.50534
G1 X106.883 Y121.5 E16.55556
G1 X93.117 Y121.5 E17.24235
G1 X92.37 Y121.46 E17.27967
G1 X91.632 Y121.341 E17.31696
G1 X90.91 Y121.143 E17.35431
G1 X90.214 Y120.87 E17.39161
G1 X89.551 Y120.523 E17.42895
G1 X88.928 Y120.108 E17.46629
G1 X88.167 Y119.45 E17.51648
G1 X88.05 Y119.333 E17.52474
G1 X87.55 Y118.776 E17.56208
G1 X87.113 Y118.17 E17.59936
G1 X86.742 Y117.52 E17.63669
G1 X86.443 Y116.834 E17.67403
G1 X86.219 Y116.12 E17.71136
G1 X86.072 Y115.387 E17.74866
G1 X86 Y114.383 E17.79888
G1 X86 Y114.124 E17.8118
G1 X86.04 Y113.377 E17.84912
G1 X86.159 Y112.639 E17.88642
G1 X86.357 Y111.917 E17.92377
G1 X86.63 Y111.221 E17.96107
G1 X86.977 Y110.558 E17.9984
G1 X87.392 Y109.935 E18.03575
G1 X87.871 Y109.361 E18.07304
G1 X87.984 Y109.251 E18.08091
G1 X87.693 Y108.584 E18.11722
G1 X87.469 Y107.87 E18.15455
G1 X87.322 Y107.137 E18.19185
G1 X87.25 Y106.133 E18.24207
G1 X87.25 Y100.367 E18.52973
G1 X87.29 Y99.62 E18.56706
G1 X87.409 Y98.882 E18.60435
G1 X87.607 Y98.16 E18.6417
G1 X87.88 Y97.464 E18.679
G1 X88.227 Y96.801 E18.71633
G1 X88.642 Y96.178 E18.75368
G1 X88.973 Y95.795 E18.77893
G1 X88.862 Y95.616 E18.78944
G1 X88.538 Y94.942 E18.82675
G1 X88.288 Y94.237 E18.86407
G1 X88.114 Y93.509 E18.90141
G1 X88.019 Y92.767 E18.93873
G1 X88 Y92.25 E18.96455
G1 X88 Y85.617 E19.29547
G1 X88.04 Y84.87 E19.33279
G1 X88.159 Y84.132 E19.37008
G1 X88.357 Y83.41 E19.40743
G1 X88.63 Y82.714 E19.44473
G1 X88.977 Y82.051 E19.48207
G1 X89.392 Y81.428 E19.51941
G0 F3600 X89.789 Y81.567
G1 F1800 X90.333 Y80.95 E19.56045
G1 X90.45 Y80.833 E19.56871
G1 X90.991 Y80.349 E19.60492
G1 X91.582 Y79.926 E19.64118
G1 X92.216 Y79.572 E19.67741
G1 X92.885 Y79.289 E19.71365
G1 X93.581 Y79.081 E19.74989
G1 X94.296 Y78.951 E19.78614
G1 X95.117 Y78.9 E19.82718
G1 X104.883 Y78.9 E20.31441
G1 X105.608 Y78.94 E20.35064
G1 X106.325 Y79.059 E20.3869
G1 X107.024 Y79.257 E20.42314
G1 X107.697 Y79.53 E20.45938
G1 X108.336 Y79.875 E20.49561
G1 X108.933 Y80.289 E20.53185
G1 X109.55 Y80.833 E20.57289
G1 X109.667 Y80.95 E20.58114
G1 X110.151 Y81.491 E20.61736
G1 X110.574 Y82.082 E20.65362
G1 X110.928 Y82.716 E20.68985
G1 X111.211 Y83.385 E20.72609
G1 X111.419 Y84.081 E20.76233
G1 X111.549 Y84.796 E20.79858
G1 X111.6 Y85.617 E20.83962
G1 X111.6 Y92.25 E21.17054
G1 X111.56 Y92.975 E21.20677
G1 X111.441 Y93.692 E21.24303
G1 X111.243 Y94.391 E21.27928
G1 X110.97 Y95.064 E21.31551
G1 X110.625 Y95.703 E21.35174
G1 X110.426 Y95.99 E21.36916
G1 X110.651 Y96.241 E21.38598
G1 X111.074 Y96.832 E21.42224
G1 X111.428 Y97.466 E21.45847
G1 X111.711 Y98.135 E21.49471
G1 X111.919 Y98.831 E21.53095
G1 X112.049 Y99.546 E21.5672
G1 X112.1 Y100.367 E21.60824
G1 X112.1 Y106.133 E21.89591
G1 X112.06 Y106.858 E21.93213
G1 X111.941 Y107.575 E21.96839
G1 X111.743 Y108.274 E22.00464
G1 X111.47 Y108.947 E22.04087
G1 X111.365 Y109.142 E22.05192
G1 X111.602 Y109.349 E22.06762
G1 X112.094 Y109.883 E22.10385
G1 X112.525 Y110.468 E22.1401
G1 X112.888 Y111.097 E22.17633
G1 X113.18 Y111.762 E22.21256
G1 X113.397 Y112.455 E22.24879
G1 X113.537 Y113.168 E22.28504
G1 X113.6 Y114.079 E22.3306
G1 X113.6 Y114.383 E22.34577
G1 X113.56 Y115.108 E22.382
G1 X113.441 Y115.825 E22.41826
G1 X113.243 Y116.524 E22.4545
G1 X112.97 Y117.197 E22.49073
G1 X112.625 Y117.836 E22.52696
G1 X112.211 Y118.433 E22.56321
G1 X111.667 Y119.05 E22.60425
G1 X111.55 Y119.167 E22.6125
G1 X111.009 Y119.651 E22.64872
G1 X110.418 Y120.074 E22.68498
G1 X109.784 Y120.428 E22.7212
G1 X109.115 Y120.711 E22.75744
G1 X108.419 Y120.919 E22.79369
G1 X107.704 Y121.049 E22.82994
G1 X106.883 Y121.1 E22.87098
G1 X93.117 Y121.1 E23.55777
G1 X92.392 Y121.06 E23.59399
G1 X91.675 Y120.941 E23.63026
G1 X90.976 Y120.743 E23.6665
G1 X90.303 Y120.47 E23.70273
G1 X89.664 Y120.125 E23.73896
G1 X89.067 Y119.711 E23.77521
G1 X88.45 Y119.167 E23.81625
G1 X88.333 Y119.05 E23.8245
G1 X87.849 Y118.509 E23.86072
G1 X87.426 Y117.918 E23.89698
G1 X87.072 Y117.284 E23.9332
G1 X86.789 Y116.615 E23.96944
G1 X86.581 Y115.919 E24.00569
G1 X86.451 Y115.204 E24.04194
G1 X86.4 Y114.383 E24.08298
G1 X86.4 Y114.124 E24.0959
G1 X86.44 Y113.399 E24.13213
G1 X86.559 Y112.682 E24.16839
G1 X86.757 Y111.983 E24.20463
G1 X87.03 Y111.31 E24.24087
G1 X87.375 Y110.671 E24.2771
G1 X87.789 Y110.074 E24.31334
G1 X88.265 Y109.526 E24.34955
G1 X88.484 Y109.324 E24.36442
G1 X88.322 Y109.034 E24.38099
G1 X88.039 Y108.365 E24.41723
G1 X87.831 Y107.669 E24.45347
G1 X87.701 Y106.954 E24.48973
G1 X87.65 Y106.133 E24.53077
G1 X87.65 Y100.367 E24.81843
G1 X87.69 Y99.642 E24.85466
G1 X87.809 Y98.925 E24.89092
G1 X88.007 Y98.226 E24.92717
G1 X88.28 Y97.553 E24.9634
G1 X88.625 Y96.914 E24.99963
G1 X89.039 Y96.317 E25.03587
G1 X89.462 Y95.837 E25.06779
G1 X89.115 Y95.237 E25.10237
G1 X88.822 Y94.572 E25.13863
G1 X88.604 Y93.879 E25.17487
G1 X88.464 Y93.167 E25.21107
G1 X88.4 Y92.25 E25.25693
G1 X88.4 Y85.617 E25.58786
G1 X88.44 Y84.892 E25.62408
G1 X88.559 Y84.175 E25.66034
G1 X88.757 Y83.476 E25.69659
G1 X89.03 Y82.803 E25.73282
G1 X89.375 Y82.164 E25.76905
G1 X89.789 Y81.567 E25.8053
G0 F3600 X90.185 Y81.711
G1 F1800 X90.616 Y81.233 E25.83741
G1 X90.733 Y81.116 E25.84566
G1 X91.258 Y80.647 E25.88078
G1 X91.833 Y80.241 E25.9159
G1 X92.451 Y79.903 E25.95104
G1 X93.102 Y79.636 E25.98615
G1 X93.78 Y79.446 E26.02127
G1 X94.475 Y79.333 E26.0564
G1 X95.117 Y79.3 E26.08848
G1 X104.883 Y79.3 E26.5757
G1 X105.586 Y79.34 E26.61083
G1 X106.28 Y79.459 E26.64596
G1 X106.955 Y79.657 E26.68106
G1 X107.604 Y79.929 E26.71616
G1 X108.218 Y80.274 E26.7513
G1 X108.789 Y80.685 E26.7864
G1 X109.267 Y81.116 E26.81851
G1 X109.384 Y81.233 E26.82677
G1 X109.853 Y81.758 E26.86189
G1 X110.259 Y82.333 E26.897
G1 X110.597 Y82.951 E26.93215
G1 X110.864 Y83.602 E26.96725
G1 X111.054 Y84.28 E27.00238
G1 X111.167 Y84.975 E27.03751
G1 X111.2 Y85.617 E27.06958
G1 X111.2 Y92.25 E27.4005
G1 X111.16 Y92.953 E27.43563
G1 X111.041 Y93.647 E27.47076
G1 X110.843 Y94.322 E27.50586
G1 X110.571 Y94.971 E27.54096
G1 X110.226 Y95.585 E27.5761
G1 X109.915 Y96.017 E27.60266
G1 X110.353 Y96.508 E27.63548
G1 X110.759 Y97.083 E27.6706
G1 X111.097 Y97.701 E27.70574
G1 X111.364 Y98.352 E27.74085
G1 X111.554 Y99.03 E27.77598
G1 X111.667 Y99.725 E27.8111
