;FLAVOR:Marlin
;TIME:2926
;Filament used: 3.3197m
;Layer height: 0.2
;MINX:85.283
;MINY:85.08
;MINZ:0.3
;MAXX:114.533
;MAXY:114.92
;MAXZ:42.5
;Generated with Cura_SteamEngine 4.13.1
M140 S60
M105
M190 S60
M104 S200
M105
M109 S200
M82 ;absolute extrusion mode
G21 ;metric values
 G90 ;absolute positioning
 M82 ;set extruder to absolute mode
 M107 ;start with the fan off
 G28 X0 Y0 ;move X/Y to min endstops
 G28 Z0 ;move Z to min endstops
 G1 Z15.0 F120 ;move the platform down 15mm
 G92 E0 ;zero the extruded length
 G1 F200 E6 ;extrude 6 mm of feed stock
 G92 E0 ;zero the extruded length again
 G1 F120 
 ;Put printing message on LCD screen
 M117 Printing...
G92 E0
G92 E0
G1 F1500 E-6.5
;LAYER_COUNT:212
;LAYER:0
M107
G0 F3600 X88.172 Y91.094 Z0.3
;TYPE:SKIRT
G1 F1500 E0
G1 F1800 X88.405 Y90.889 E0.01548
G1 X89.023 Y90.398 E0.05486
G1 X89.688 Y89.972 E0.09426
G1 X90.264 Y89.67 E0.12671
G1 X90.987 Y89.352 E0.16612
G1 X91.738 Y89.108 E0.20551
G1 X92.441 Y88.953 E0.24143
G1 X92.795 Y88.892 E0.25935
G1 X93.579 Y88.798 E0.29874
G1 X94.369 Y88.783 E0.33816
G1 X95.445 Y88.892 E0.39212
G1 X95.799 Y88.953 E0.41004
G1 X96.569 Y89.127 E0.44942
G1 X97.318 Y89.377 E0.48882
G1 X98.038 Y89.702 E0.52823
G1 X98.715 Y90.083 E0.56699
G1 X99.376 Y90.515 E0.60638
G1 X99.991 Y91.011 E0.6458
G1 X100.431 Y91.455 E0.67699
G1 X100.622 Y91.322 E0.6886
G1 X101.295 Y90.909 E0.72799
G1 X101.881 Y90.618 E0.76063
G1 X102.611 Y90.317 E0.80003
G1 X103.368 Y90.091 E0.83944
G1 X103.882 Y89.984 E0.86563
G1 X104.269 Y89.917 E0.88523
G1 X105.053 Y89.822 E0.92463
G1 X105.843 Y89.807 E0.96405
G1 X106.728 Y89.885 E1.00837
G1 X107.036 Y89.93 E1.0239
G1 X107.81 Y90.084 E1.06328
G1 X108.881 Y90.437 E1.11953
G1 X109.143 Y90.545 E1.13367
G1 X109.857 Y90.882 E1.17306
G1 X110.533 Y91.29 E1.21246
G1 X111.187 Y91.784 E1.25335
G1 X111.487 Y92.036 E1.27289
G1 X112.065 Y92.573 E1.31225
G1 X112.586 Y93.167 E1.35167
G1 X112.976 Y93.701 E1.38466
G1 X113.395 Y94.37 E1.42405
G1 X113.636 Y94.839 E1.45035
G1 X113.722 Y95.021 E1.46039
G1 X114.023 Y95.751 E1.49979
G1 X114.249 Y96.508 E1.5392
G1 X114.355 Y97.016 E1.56509
G1 X114.422 Y97.401 E1.58459
G1 X114.517 Y98.185 E1.62399
G1 X114.533 Y98.974 E1.66336
G1 X114.492 Y99.599 E1.69461
G1 X114.385 Y100.381 E1.73399
G1 X114.122 Y101.397 E1.78635
G1 X114.024 Y101.692 E1.80185
G1 X113.738 Y102.428 E1.84125
G1 X113.213 Y103.404 E1.89654
G1 X113.063 Y103.641 E1.91053
G1 X112.607 Y104.286 E1.94994
G1 X112.026 Y104.946 E1.99381
G1 X111.885 Y105.089 E2.00383
G1 X111.303 Y105.623 E2.04324
G1 X110.74 Y106.047 E2.0784
G1 X110.578 Y106.158 E2.0882
G1 X109.905 Y106.571 E2.12759
G1 X109.319 Y106.862 E2.16023
G1 X108.589 Y107.163 E2.19963
G1 X107.832 Y107.389 E2.23904
G1 X107.318 Y107.496 E2.26523
G1 X106.931 Y107.563 E2.28483
G1 X106.147 Y107.658 E2.32423
G1 X105.357 Y107.673 E2.36365
G1 X104.472 Y107.595 E2.40797
G1 X104.164 Y107.55 E2.4235
G1 X103.39 Y107.396 E2.46287
G1 X102.319 Y107.043 E2.51913
G1 X102.057 Y106.935 E2.53327
G1 X101.343 Y106.598 E2.57266
G1 X100.667 Y106.19 E2.61205
G1 X100.013 Y105.696 E2.65294
G1 X99.713 Y105.444 E2.67249
G1 X99.135 Y104.907 E2.71185
G1 X98.558 Y105.254 E2.74544
G1 X97.862 Y105.628 E2.78486
G1 X97.133 Y105.93 E2.82423
G1 X96.524 Y106.122 E2.85609
G1 X95.756 Y106.308 E2.89551
G1 X94.988 Y106.415 E2.9342
G1 X94.807 Y106.431 E2.94326
G1 X94.018 Y106.46 E2.98265
G1 X93.23 Y106.41 E3.02204
G1 X92.441 Y106.287 E3.06188
G1 X91.671 Y106.113 E3.10127
G1 X90.922 Y105.863 E3.14066
G1 X90.202 Y105.538 E3.18007
G1 X89.525 Y105.157 E3.21883
G1 X88.864 Y104.725 E3.25823
G1 X88.249 Y104.229 E3.29764
G1 X87.583 Y103.556 E3.34488
G1 X87.378 Y103.322 E3.3604
G1 X86.888 Y102.702 E3.39983
G1 X86.282 Y101.697 E3.45838
G1 X86.177 Y101.489 E3.47
G1 X85.857 Y100.767 E3.5094
G1 X85.612 Y100.016 E3.54881
G1 X85.455 Y99.306 E3.58509
G1 X85.394 Y98.954 E3.60291
G1 X85.298 Y98.17 E3.64232
G1 X85.283 Y97.38 E3.68174
G1 X85.391 Y96.305 E3.73564
G1 X85.452 Y95.949 E3.75366
G1 X85.625 Y95.178 E3.79308
G1 X85.874 Y94.429 E3.83246
G1 X86.198 Y93.709 E3.87185
G1 X86.583 Y93.025 E3.91101
G1 X87.015 Y92.364 E3.95041
G1 X87.511 Y91.749 E3.98982
G1 X88.172 Y91.094 E4.03625
G0 F3600 X88.436 Y91.394
G1 F1800 X88.669 Y91.189 E4.05173
G1 X89.272 Y90.712 E4.09009
G1 X90.235 Y90.133 E4.14615
G1 X90.444 Y90.028 E4.15782
G1 X91.148 Y89.718 E4.1962
G1 X91.881 Y89.484 E4.23459
G1 X92.509 Y89.347 E4.26665
G1 X92.863 Y89.286 E4.28457
G1 X93.627 Y89.195 E4.32296
G1 X94.396 Y89.184 E4.36133
G1 X95.377 Y89.286 E4.41054
G1 X95.731 Y89.347 E4.42846
G1 X96.481 Y89.517 E4.46682
G1 X97.209 Y89.764 E4.50518
G1 X98.198 Y90.245 E4.56005
G1 X98.514 Y90.429 E4.57829
G1 X99.157 Y90.85 E4.61663
G1 X99.754 Y91.336 E4.65504
G1 X100.358 Y91.949 E4.69797
G1 X100.39 Y91.985 E4.70038
G1 X100.848 Y91.652 E4.72863
G1 X101.505 Y91.25 E4.76705
G1 X102.051 Y90.979 E4.79746
G1 X102.763 Y90.687 E4.83586
G1 X103.501 Y90.471 E4.87422
G1 X104.338 Y90.311 E4.91673
G1 X105.101 Y90.22 E4.95507
G1 X105.87 Y90.208 E4.99344
G1 X106.67 Y90.281 E5.03352
G1 X106.978 Y90.326 E5.04905
G1 X107.732 Y90.476 E5.0874
G1 X108.728 Y90.806 E5.13975
G1 X108.99 Y90.914 E5.15389
G1 X109.685 Y91.244 E5.19227
G1 X110.342 Y91.644 E5.23065
G1 X110.93 Y92.09 E5.26747
G1 X111.23 Y92.342 E5.28701
G1 X111.792 Y92.866 E5.32535
G1 X112.297 Y93.447 E5.36375
G1 X112.648 Y93.93 E5.39354
G1 X113.056 Y94.582 E5.43191
G1 X113.361 Y95.191 E5.46589
G1 X113.653 Y95.903 E5.50429
G1 X113.869 Y96.641 E5.54265
G1 X114.027 Y97.469 E5.5847
G1 X114.12 Y98.233 E5.6231
G1 X114.11 Y99.365 E5.67958
G1 X114.093 Y99.565 E5.68959
G1 X113.989 Y100.327 E5.72796
G1 X113.743 Y101.271 E5.77663
G1 X113.645 Y101.566 E5.79214
G1 X113.365 Y102.282 E5.8305
G1 X112.875 Y103.191 E5.88202
G1 X112.725 Y103.428 E5.89601
G1 X112.28 Y104.055 E5.93437
G1 X111.741 Y104.666 E5.97502
G1 X111.6 Y104.809 E5.98504
G1 X111.033 Y105.327 E6.02335
G1 X110.514 Y105.717 E6.05574
G1 X110.352 Y105.828 E6.06554
G1 X109.695 Y106.23 E6.10396
G1 X109.149 Y106.501 E6.13438
G1 X108.437 Y106.793 E6.17277
G1 X107.699 Y107.009 E6.21113
G1 X106.862 Y107.169 E6.25365
G1 X106.099 Y107.26 E6.29198
G1 X105.33 Y107.272 E6.33035
G1 X104.53 Y107.199 E6.37043
G1 X104.222 Y107.154 E6.38596
G1 X103.468 Y107.004 E6.42431
G1 X102.472 Y106.674 E6.47666
G1 X102.21 Y106.566 E6.4908
G1 X101.515 Y106.236 E6.52918
G1 X100.858 Y105.836 E6.56756
G1 X100.27 Y105.39 E6.60438
G1 X99.97 Y105.138 E6.62392
G1 X99.408 Y104.614 E6.66226
G1 X99.185 Y104.358 E6.6792
G1 X98.619 Y104.75 E6.71355
G1 X98.351 Y104.912 E6.72917
G1 X97.673 Y105.275 E6.76754
G1 X96.632 Y105.672 E6.82312
G1 X96.41 Y105.738 E6.83468
G1 X95.662 Y105.919 E6.87307
G1 X94.953 Y106.016 E6.90877
G1 X94.772 Y106.032 E6.91784
G1 X94.003 Y106.06 E6.95623
G1 X92.863 Y105.954 E7.01335
G1 X92.509 Y105.893 E7.03127
G1 X91.759 Y105.723 E7.06964
G1 X91.031 Y105.476 E7.10799
G1 X90.042 Y104.995 E7.16286
G1 X89.726 Y104.811 E7.1811
G1 X89.083 Y104.39 E7.21945
G1 X88.486 Y103.904 E7.25785
G1 X87.884 Y103.292 E7.30068
G1 X87.679 Y103.058 E7.3162
G1 X87.203 Y102.454 E7.35457
G1 X86.639 Y101.517 E7.40913
G1 X86.534 Y101.309 E7.42076
G1 X86.224 Y100.605 E7.45913
G1 X85.988 Y99.873 E7.4975
G1 X85.849 Y99.238 E7.52993
G1 X85.788 Y98.886 E7.54776
G1 X85.696 Y98.122 E7.58615
G1 X85.684 Y97.353 E7.62452
G1 X85.785 Y96.372 E7.67372
G1 X85.846 Y96.016 E7.69174
G1 X86.015 Y95.266 E7.73009
G1 X86.262 Y94.537 E7.7685
G1 X86.745 Y93.542 E7.82368
G1 X86.929 Y93.226 E7.84192
G1 X87.35 Y92.583 E7.88026
G1 X87.836 Y91.986 E7.91867
G1 X88.436 Y91.394 E7.96072
G0 F3600 X88.7 Y91.695
G1 F1800 X88.933 Y91.49 E7.9762
G1 X89.52 Y91.026 E8.01353
G1 X90.415 Y90.49 E8.06558
G1 X90.624 Y90.385 E8.07725
G1 X91.309 Y90.085 E8.11456
G1 X92.022 Y89.861 E8.15184
G1 X92.577 Y89.742 E8.18016
G1 X92.931 Y89.681 E8.19808
G1 X93.674 Y89.593 E8.23541
G1 X94.422 Y89.586 E8.27273
G1 X95.309 Y89.681 E8.31724
G1 X95.663 Y89.742 E8.33516
G1 X96.392 Y89.908 E8.37246
G1 X97.1 Y90.151 E8.4098
G1 X97.996 Y90.591 E8.4596
G1 X98.312 Y90.775 E8.47785
G1 X98.938 Y91.185 E8.51518
G1 X99.516 Y91.66 E8.55251
G1 X100.057 Y92.213 E8.5911
G1 X100.335 Y92.541 E8.61255
G1 X100.437 Y92.448 E8.61944
G1 X100.912 Y92.092 E8.64905
G1 X101.074 Y91.981 E8.65885
G1 X102.04 Y91.427 E8.71441
G1 X102.222 Y91.341 E8.72445
G1 X102.915 Y91.058 E8.7618
G1 X103.634 Y90.851 E8.79913
G1 X104.406 Y90.706 E8.83831
G1 X105.149 Y90.618 E8.87564
G1 X105.897 Y90.609 E8.91296
G1 X106.612 Y90.677 E8.94879
G1 X106.92 Y90.722 E8.96432
G1 X107.653 Y90.869 E9.00162
G1 X108.576 Y91.176 E9.05015
G1 X108.838 Y91.284 E9.06429
G1 X109.513 Y91.606 E9.1016
G1 X110.15 Y91.998 E9.13892
G1 X110.672 Y92.396 E9.17166
G1 X110.972 Y92.648 E9.19121
G1 X111.519 Y93.159 E9.22856
G1 X112.206 Y93.996 E9.28258
G1 X112.32 Y94.159 E9.2925
G1 X112.716 Y94.794 E9.32984
G1 X112.999 Y95.362 E9.3615
G1 X113.282 Y96.055 E9.39884
G1 X113.489 Y96.774 E9.43617
G1 X113.633 Y97.538 E9.47496
G1 X113.722 Y98.281 E9.51229
G1 X113.712 Y99.331 E9.56468
G1 X113.695 Y99.531 E9.57469
G1 X113.592 Y100.272 E9.61202
G1 X113.363 Y101.145 E9.65705
G1 X113.265 Y101.44 E9.67255
G1 X112.992 Y102.136 E9.70985
G1 X112.537 Y102.977 E9.75756
G1 X112.387 Y103.214 E9.77155
G1 X111.954 Y103.823 E9.80883
G1 X111.456 Y104.385 E9.84629
G1 X111.315 Y104.528 E9.85631
G1 X110.763 Y105.032 E9.89361
G1 X110.288 Y105.388 E9.92322
G1 X110.126 Y105.499 E9.93302
G1 X109.16 Y106.053 E9.98857
G1 X108.978 Y106.139 E9.99862
G1 X108.285 Y106.422 E10.03596
G1 X107.566 Y106.629 E10.07329
G1 X106.794 Y106.774 E10.11248
G1 X106.051 Y106.862 E10.14981
G1 X105.303 Y106.871 E10.18713
G1 X104.588 Y106.803 E10.22296
G1 X104.28 Y106.758 E10.23849
G1 X103.547 Y106.611 E10.27579
G1 X102.624 Y106.304 E10.32432
G1 X102.362 Y106.196 E10.33845
G1 X101.687 Y105.874 E10.37577
G1 X101.05 Y105.482 E10.41308
G1 X100.528 Y105.084 E10.44583
G1 X100.228 Y104.832 E10.46538
G1 X99.681 Y104.321 E10.50272
G1 X99.253 Y103.8 E10.53636
G1 X99.093 Y103.939 E10.54694
G1 X98.412 Y104.408 E10.58819
G1 X98.144 Y104.57 E10.60381
G1 X97.484 Y104.922 E10.64113
G1 X96.518 Y105.289 E10.69268
G1 X96.296 Y105.355 E10.70424
G1 X95.568 Y105.529 E10.74158
G1 X94.917 Y105.618 E10.77436
G1 X94.736 Y105.634 E10.78343
G1 X93.989 Y105.66 E10.82072
G1 X92.931 Y105.559 E10.87374
G1 X92.577 Y105.498 E10.89166
G1 X91.848 Y105.332 E10.92897
G1 X91.14 Y105.089 E10.96631
G1 X90.244 Y104.649 E11.01611
G1 X89.928 Y104.465 E11.03435
G1 X89.302 Y104.055 E11.07169
G1 X88.724 Y103.58 E11.10901
G1 X88.185 Y103.029 E11.14747
G1 X87.98 Y102.795 E11.16299
G1 X87.518 Y102.207 E11.2003
G1 X86.996 Y101.337 E11.25091
G1 X86.891 Y101.129 E11.26254
G1 X86.59 Y100.444 E11.29987
G1 X86.364 Y99.731 E11.33718
G1 X86.243 Y99.169 E11.36586
G1 X86.182 Y98.817 E11.38369
G1 X86.094 Y98.074 E11.42101
G1 X86.085 Y97.326 E11.45833
G1 X86.18 Y96.44 E11.50279
G1 X86.241 Y96.084 E11.52081
G1 X86.406 Y95.354 E11.55815
G1 X86.649 Y94.647 E11.59545
G1 X87.091 Y93.744 E11.6456
G1 X87.275 Y93.428 E11.66385
G1 X87.685 Y92.802 E11.70118
G1 X88.16 Y92.224 E11.73851
G1 X88.7 Y91.695 E11.77622
G0 F3600 X88.964 Y91.995
G1 F1800 X89.197 Y91.79 E11.7917
G1 X89.768 Y91.341 E11.82794
G1 X90.594 Y90.847 E11.87596
G1 X90.803 Y90.742 E11.88763
G1 X91.469 Y90.453 E11.92385
G1 X92.163 Y90.238 E11.9601
G1 X92.999 Y90.075 E12.00259
G1 X93.721 Y89.991 E12.03885
G1 X94.447 Y89.987 E12.07507
G1 X95.241 Y90.075 E12.11493
G1 X95.595 Y90.136 E12.13285
G1 X96.303 Y90.298 E12.16909
G1 X96.988 Y90.538 E12.2053
G1 X97.795 Y90.936 E12.25019
G1 X98.111 Y91.12 E12.26843
G1 X98.718 Y91.52 E12.3047
G1 X99.277 Y91.984 E12.34094
G1 X99.756 Y92.476 E12.3752
G1 X99.96 Y92.709 E12.39065
G1 X100.286 Y93.127 E12.4171
G1 X100.707 Y92.745 E12.44546
G1 X101.138 Y92.422 E12.47233
G1 X101.3 Y92.311 E12.48213
G1 X102.211 Y91.789 E12.53451
G1 X102.393 Y91.703 E12.54455
G1 X103.066 Y91.429 E12.58081
G1 X104.087 Y91.167 E12.63339
G1 X104.474 Y91.1 E12.65299
G1 X105.196 Y91.015 E12.68926
G1 X105.922 Y91.011 E12.72548
G1 X106.554 Y91.072 E12.75716
G1 X106.862 Y91.117 E12.77269
G1 X107.574 Y91.262 E12.80894
G1 X108.423 Y91.546 E12.8536
G1 X108.685 Y91.654 E12.86774
G1 X109.341 Y91.967 E12.904
G1 X109.957 Y92.351 E12.94022
G1 X110.415 Y92.702 E12.969
G1 X110.715 Y92.954 E12.98855
G1 X111.245 Y93.451 E13.0248
G1 X111.878 Y94.225 E13.07468
G1 X111.992 Y94.388 E13.08461
G1 X112.375 Y95.006 E13.12088
G1 X112.637 Y95.533 E13.15024
G1 X112.911 Y96.206 E13.18649
G1 X113.172 Y97.221 E13.23878
G1 X113.239 Y97.606 E13.25828
G1 X113.324 Y98.328 E13.29455
G1 X113.313 Y99.297 E13.34289
G1 X113.296 Y99.497 E13.35291
G1 X113.195 Y100.216 E13.38913
G1 X112.983 Y101.019 E13.43057
G1 X112.885 Y101.314 E13.44607
G1 X112.619 Y101.989 E13.48227
G1 X112.199 Y102.763 E13.5262
G1 X112.049 Y103 E13.5402
G1 X111.627 Y103.591 E13.57643
G1 X111.172 Y104.104 E13.61064
G1 X111.031 Y104.247 E13.62066
G1 X110.493 Y104.735 E13.65689
G1 X110.062 Y105.058 E13.68377
G1 X109.9 Y105.169 E13.69356
G1 X108.989 Y105.691 E13.74595
G1 X108.807 Y105.777 E13.75599
G1 X108.134 Y106.051 E13.79224
G1 X107.113 Y106.313 E13.84483
G1 X106.726 Y106.38 E13.86442
G1 X106.004 Y106.465 E13.90069
G1 X105.278 Y106.469 E13.93691
G1 X104.646 Y106.408 E13.96859
G1 X104.338 Y106.363 E13.98412
G1 X103.626 Y106.218 E14.02037
G1 X102.777 Y105.934 E14.06503
G1 X102.515 Y105.826 E14.07917
G1 X101.859 Y105.513 E14.11544
G1 X101.243 Y105.129 E14.15165
G1 X100.785 Y104.778 E14.18044
G1 X100.485 Y104.526 E14.19998
G1 X99.955 Y104.029 E14.23623
G1 X99.315 Y103.246 E14.28669
G1 X99.303 Y103.229 E14.28772
G1 X98.814 Y103.649 E14.31988
G1 X98.205 Y104.065 E14.35668
G1 X97.937 Y104.227 E14.3723
G1 X97.296 Y104.568 E14.40853
G1 X96.404 Y104.905 E14.4561
G1 X96.182 Y104.971 E14.46765
G1 X95.475 Y105.14 E14.50392
G1 X94.882 Y105.219 E14.53377
G1 X94.701 Y105.235 E14.54283
G1 X93.975 Y105.259 E14.57907
G1 X92.999 Y105.165 E14.62799
G1 X92.645 Y105.104 E14.64591
G1 X91.937 Y104.942 E14.68215
G1 X91.252 Y104.702 E14.71836
G1 X90.445 Y104.304 E14.76325
G1 X90.129 Y104.12 E14.78149
G1 X89.522 Y103.72 E14.81776
G1 X88.963 Y103.256 E14.854
G1 X88.486 Y102.765 E14.88816
G1 X88.281 Y102.531 E14.90368
G1 X87.833 Y101.959 E14.93993
G1 X87.353 Y101.156 E14.9866
G1 X87.248 Y100.948 E14.99822
G1 X86.957 Y100.283 E15.03444
G1 X86.741 Y99.589 E15.0707
G1 X86.576 Y98.749 E15.11341
G1 X86.491 Y98.028 E15.14963
G1 X86.487 Y97.301 E15.1859
G1 X86.574 Y96.507 E15.22575
G1 X86.635 Y96.151 E15.24377
G1 X86.797 Y95.443 E15.28
G1 X87.035 Y94.757 E15.31623
G1 X87.436 Y93.945 E15.36141
G1 X87.62 Y93.629 E15.37965
G1 X88.02 Y93.022 E15.41592
G1 X88.484 Y92.463 E15.45217
G1 X88.964 Y91.995 E15.48561
G0 F3600 X89.229 Y92.295
G1 F1800 X89.462 Y92.09 E15.5011
G1 X90.016 Y91.656 E15.53621
G1 X90.774 Y91.205 E15.58021
G1 X90.983 Y91.1 E15.59188
G1 X91.629 Y90.82 E15.62701
G1 X92.302 Y90.615 E15.6621
G1 X93.067 Y90.469 E15.70096
G1 X93.767 Y90.389 E15.73611
G1 X94.471 Y90.389 E15.77123
G1 X95.173 Y90.469 E15.80648
G1 X95.527 Y90.53 E15.8244
G1 X96.213 Y90.689 E15.85954
G1 X96.876 Y90.924 E15.89463
G1 X97.594 Y91.282 E15.93466
G1 X97.91 Y91.466 E15.9529
G1 X98.497 Y91.854 E15.988
G1 X99.037 Y92.307 E16.02317
G1 X99.455 Y92.74 E16.0532
G1 X99.659 Y92.973 E16.06865
G1 X100.092 Y93.528 E16.10376
G1 X100.226 Y93.754 E16.11687
G1 X100.454 Y93.514 E16.13339
G1 X100.976 Y93.042 E16.1685
G1 X101.527 Y92.641 E16.2025
G1 X102.382 Y92.15 E16.25169
G1 X102.564 Y92.064 E16.26173
G1 X103.217 Y91.8 E16.29687
G1 X104.155 Y91.561 E16.34516
G1 X104.542 Y91.494 E16.36476
G1 X105.242 Y91.413 E16.39991
G1 X105.946 Y91.413 E16.43503
G1 X106.496 Y91.468 E16.46261
G1 X106.804 Y91.513 E16.47814
G1 X107.494 Y91.654 E16.51328
G1 X108.271 Y91.916 E16.55419
G1 X108.533 Y92.024 E16.56832
G1 X109.167 Y92.329 E16.60342
G1 X109.763 Y92.703 E16.63853
G1 X110.458 Y93.261 E16.68299
G1 X110.97 Y93.743 E16.71808
G1 X111.551 Y94.455 E16.76392
G1 X111.665 Y94.618 E16.77385
G1 X112.19 Y95.522 E16.826
G1 X112.276 Y95.704 E16.83605
G1 X112.54 Y96.357 E16.87119
G1 X112.778 Y97.29 E16.91922
G1 X112.845 Y97.675 E16.93872
G1 X112.926 Y98.374 E16.97383
G1 X112.915 Y99.263 E17.01818
G1 X112.898 Y99.463 E17.0282
G1 X112.798 Y100.16 E17.06333
G1 X112.604 Y100.893 E17.10115
