;FLAVOR:Marlin
;TIME:3016
;Filament used: 2.84804m
;Layer height: 0.2
;MINX:60.1
;MINY:68.6
;MINZ:0.3
;MAXX:94.9
;MAXY:131.4
;MAXZ:24.9
;Generated with Cura_SteamEngine 4.13.1
M140 S60
M105
M190 S60
M104 S200
M105
M109 S200
M82 ;absolute extrusion mode
G21 ;metric values
 G90 ;absolute positioning
 M82 ;set extruder to absolute mode
 M107 ;start with the fan off
 G28 X0 Y0 ;move X/Y to min endstops
 G28 Z0 ;move Z to min endstops
 G1 Z15.0 F120 ;move the platform down 15mm
 G92 E0 ;zero the extruded length
 G1 F200 E6 ;extrude 6 mm of feed stock
 G92 E0 ;zero the extruded length again
 G1 F120 
 ;Put printing message on LCD screen
 M117 Printing...
G92 E0
G92 E0
G1 F1500 E-6.5
;LAYER_COUNT:124
;LAYER:0
M107
G0 F3600 X63.088 Y70.355 Z0.3
;TYPE:SKIRT
G1 F1500 E0
G1 F1800 X63.724 Y69.888 E0.03937
G1 X64.404 Y69.487 E0.07875
G1 X65.122 Y69.157 E0.11817
G1 X65.869 Y68.902 E0.15755
G1 X66.638 Y68.723 E0.19694
G1 X67.422 Y68.623 E0.23638
G1 X68.017 Y68.6 E0.26608
G1 X75.463 Y68.6 E0.63756
G1 X76.252 Y68.64 E0.67698
G1 X77.032 Y68.759 E0.71634
G1 X77.492 Y68.878 E0.74005
G1 X78.158 Y68.723 E0.77416
G1 X78.942 Y68.623 E0.81359
G1 X79.537 Y68.6 E0.8433
G1 X86.983 Y68.6 E1.21478
G1 X87.772 Y68.64 E1.2542
G1 X88.552 Y68.759 E1.29356
G1 X89.317 Y68.957 E1.33299
G1 X90.057 Y69.231 E1.37235
G1 X90.766 Y69.579 E1.41176
G1 X91.437 Y69.997 E1.4512
G1 X92.061 Y70.48 E1.49057
G1 X92.498 Y70.885 E1.52029
G1 X92.615 Y71.002 E1.52855
G1 X93.145 Y71.588 E1.56797
G1 X93.612 Y72.224 E1.60733
G1 X94.013 Y72.904 E1.64672
G1 X94.343 Y73.622 E1.68614
G1 X94.598 Y74.369 E1.72552
G1 X94.777 Y75.138 E1.76491
G1 X94.877 Y75.922 E1.80434
G1 X94.9 Y76.517 E1.83405
G1 X94.9 Y82.683 E2.14167
G1 X94.86 Y83.472 E2.18108
G1 X94.741 Y84.252 E2.22045
G1 X94.543 Y85.017 E2.25987
G1 X94.269 Y85.757 E2.29924
G1 X93.921 Y86.466 E2.33864
G1 X93.751 Y86.739 E2.35469
G1 X93.949 Y87.062 E2.37359
G1 X94.291 Y87.774 E2.413
G1 X94.56 Y88.516 E2.45237
G1 X94.752 Y89.282 E2.49177
G1 X94.866 Y90.064 E2.5312
G1 X94.9 Y90.795 E2.56771
G1 X94.9 Y94.882 E2.77161
G1 X94.86 Y95.671 E2.81102
G1 X94.741 Y96.451 E2.85039
G1 X94.543 Y97.216 E2.88981
G1 X94.269 Y97.956 E2.92918
G1 X93.921 Y98.665 E2.96858
G1 X93.503 Y99.336 E3.00802
G1 X93.23 Y99.689 E3.03029
G1 X93.383 Y100.022 E3.04857
G1 X93.638 Y100.769 E3.08795
G1 X93.817 Y101.538 E3.12734
G1 X93.917 Y102.322 E3.16677
G1 X93.94 Y102.917 E3.19648
G1 X93.94 Y109.083 E3.5041
G1 X93.9 Y109.872 E3.54351
G1 X93.781 Y110.652 E3.58288
G1 X93.583 Y111.417 E3.6223
G1 X93.309 Y112.157 E3.66167
G1 X92.961 Y112.866 E3.70107
G1 X92.543 Y113.537 E3.74052
G1 X92.248 Y113.918 E3.76456
G1 X92.493 Y114.488 E3.79551
G1 X92.73 Y115.241 E3.83489
G1 X92.889 Y116.015 E3.87431
G1 X92.97 Y116.8 E3.91369
G1 X92.98 Y117.201 E3.9337
G1 X92.98 Y121.883 E4.16728
G1 X92.94 Y122.672 E4.2067
G1 X92.821 Y123.452 E4.24606
G1 X92.623 Y124.217 E4.28549
G1 X92.349 Y124.957 E4.32485
G1 X92.001 Y125.666 E4.36426
G1 X91.583 Y126.337 E4.4037
G1 X91.1 Y126.961 E4.44307
G1 X90.695 Y127.398 E4.47279
G1 X90.578 Y127.515 E4.48105
G1 X89.992 Y128.045 E4.52047
G1 X89.356 Y128.512 E4.55983
G1 X88.676 Y128.913 E4.59922
G1 X87.958 Y129.243 E4.63864
G1 X87.211 Y129.498 E4.67802
G1 X86.442 Y129.677 E4.71741
G1 X86.038 Y129.728 E4.73773
G1 X85.516 Y130.112 E4.77006
G1 X84.836 Y130.513 E4.80944
G1 X84.118 Y130.843 E4.84886
G1 X83.371 Y131.098 E4.88824
G1 X82.602 Y131.277 E4.92764
G1 X81.818 Y131.377 E4.96707
G1 X81.223 Y131.4 E4.99677
G1 X73.777 Y131.4 E5.36826
G1 X72.988 Y131.36 E5.40767
G1 X72.208 Y131.241 E5.44703
G1 X71.443 Y131.043 E5.48646
G1 X70.703 Y130.769 E5.52583
G1 X69.994 Y130.421 E5.56523
G1 X69.323 Y130.003 E5.60467
G1 X68.975 Y129.734 E5.62661
G1 X68.368 Y129.641 E5.65725
G1 X67.603 Y129.443 E5.69667
G1 X66.863 Y129.169 E5.73604
G1 X66.154 Y128.821 E5.77545
G1 X65.483 Y128.403 E5.81489
G1 X64.859 Y127.92 E5.85425
G1 X64.422 Y127.515 E5.88398
G1 X64.305 Y127.398 E5.89223
G1 X63.775 Y126.812 E5.93165
G1 X63.308 Y126.176 E5.97102
G1 X62.907 Y125.496 E6.0104
G1 X62.577 Y124.778 E6.04983
G1 X62.322 Y124.031 E6.08921
G1 X62.143 Y123.262 E6.1286
G1 X62.043 Y122.478 E6.16803
G1 X62.02 Y121.883 E6.19774
G1 X62.02 Y117.2 E6.43137
G1 X62.06 Y116.411 E6.47079
G1 X62.179 Y115.631 E6.51015
G1 X62.377 Y114.866 E6.54957
G1 X62.651 Y114.126 E6.58894
G1 X62.75 Y113.924 E6.60017
G1 X62.348 Y113.376 E6.63407
G1 X61.947 Y112.696 E6.67346
G1 X61.617 Y111.978 E6.71288
G1 X61.362 Y111.231 E6.75226
G1 X61.183 Y110.462 E6.79165
G1 X61.083 Y109.678 E6.83108
G1 X61.06 Y109.083 E6.86079
G1 X61.06 Y102.917 E7.16841
G1 X61.1 Y102.128 E7.20783
G1 X61.219 Y101.348 E7.24719
G1 X61.417 Y100.583 E7.28661
G1 X61.691 Y99.843 E7.32598
G1 X61.767 Y99.689 E7.33455
G1 X61.427 Y99.235 E7.36285
G1 X61.02 Y98.558 E7.40226
G1 X60.684 Y97.843 E7.44167
G1 X60.421 Y97.098 E7.48109
G1 X60.236 Y96.331 E7.52045
G1 X60.128 Y95.549 E7.55984
G1 X60.1 Y94.883 E7.59309
G1 X60.1 Y90.794 E7.79709
G1 X60.14 Y90.005 E7.83651
G1 X60.259 Y89.225 E7.87587
G1 X60.457 Y88.46 E7.9153
G1 X60.731 Y87.72 E7.95466
G1 X61.079 Y87.011 E7.99407
G1 X61.248 Y86.739 E8.01004
G1 X60.987 Y86.296 E8.03569
G1 X60.657 Y85.578 E8.07512
G1 X60.402 Y84.831 E8.1145
G1 X60.223 Y84.062 E8.15389
G1 X60.123 Y83.278 E8.19332
G1 X60.1 Y82.683 E8.22303
G1 X60.1 Y76.517 E8.53065
G1 X60.14 Y75.728 E8.57006
G1 X60.259 Y74.948 E8.60943
G1 X60.457 Y74.183 E8.64885
G1 X60.731 Y73.443 E8.68822
G1 X61.079 Y72.734 E8.72762
G1 X61.497 Y72.063 E8.76706
G1 X61.98 Y71.439 E8.80643
G1 X62.385 Y71.002 E8.83616
G1 X62.502 Y70.885 E8.84441
G1 X63.088 Y70.355 E8.88383
G0 F3600 X63.356 Y70.653
G1 F1800 X63.978 Y70.2 E8.92222
G1 X64.643 Y69.814 E8.96058
G1 X65.345 Y69.499 E8.99897
G1 X66.076 Y69.259 E9.03735
G1 X66.827 Y69.096 E9.07569
G1 X67.592 Y69.012 E9.11409
G1 X68.017 Y69 E9.1353
G1 X75.463 Y69 E9.50678
G1 X76.231 Y69.04 E9.54515
G1 X76.991 Y69.159 E9.58353
G1 X77.493 Y69.293 E9.60945
G1 X77.596 Y69.259 E9.61486
G1 X78.347 Y69.096 E9.6532
G1 X79.112 Y69.012 E9.6916
G1 X79.537 Y69 E9.71281
G1 X86.983 Y69 E10.08429
G1 X87.751 Y69.04 E10.12266
G1 X88.511 Y69.159 E10.16104
G1 X89.254 Y69.357 E10.1994
G1 X89.973 Y69.631 E10.23779
G1 X90.659 Y69.978 E10.27614
G1 X91.306 Y70.394 E10.31452
G1 X91.906 Y70.875 E10.35288
G1 X92.333 Y71.284 E10.38238
G1 X92.847 Y71.856 E10.42075
G1 X93.3 Y72.478 E10.45914
G1 X93.686 Y73.143 E10.4975
G1 X94.001 Y73.845 E10.53589
G1 X94.241 Y74.576 E10.57427
G1 X94.404 Y75.327 E10.61261
G1 X94.488 Y76.092 E10.65101
G1 X94.5 Y76.517 E10.67222
G1 X94.5 Y82.683 E10.97984
G1 X94.46 Y83.451 E11.01821
G1 X94.341 Y84.211 E11.05659
G1 X94.143 Y84.954 E11.09495
G1 X93.869 Y85.673 E11.13334
G1 X93.522 Y86.359 E11.17169
G1 X93.282 Y86.732 E11.19382
G1 X93.317 Y86.781 E11.19682
G1 X93.7 Y87.448 E11.2352
G1 X94.012 Y88.151 E11.27357
G1 X94.249 Y88.883 E11.31195
G1 X94.409 Y89.636 E11.35036
G1 X94.489 Y90.4 E11.38868
G1 X94.5 Y90.795 E11.4084
G1 X94.5 Y94.882 E11.6123
G1 X94.46 Y95.65 E11.65067
G1 X94.341 Y96.41 E11.68905
G1 X94.143 Y97.153 E11.72741
G1 X93.869 Y97.872 E11.7658
G1 X93.522 Y98.558 E11.80415
G1 X93.106 Y99.205 E11.84253
G1 X92.765 Y99.63 E11.86971
G1 X93.041 Y100.245 E11.90334
G1 X93.281 Y100.976 E11.94173
G1 X93.444 Y101.727 E11.98007
G1 X93.528 Y102.492 E12.01846
G1 X93.54 Y102.917 E12.03967
G1 X93.54 Y109.083 E12.3473
G1 X93.5 Y109.851 E12.38566
G1 X93.381 Y110.611 E12.42404
G1 X93.183 Y111.354 E12.4624
G1 X92.909 Y112.073 E12.50079
G1 X92.562 Y112.759 E12.53915
G1 X92.146 Y113.406 E12.57752
G1 X91.776 Y113.868 E12.60705
G1 X91.916 Y114.138 E12.62222
G1 X92.198 Y114.854 E12.66062
G1 X92.404 Y115.595 E12.69899
G1 X92.531 Y116.353 E12.73733
G1 X92.58 Y117.201 E12.77971
G1 X92.58 Y121.883 E13.01329
G1 X92.54 Y122.651 E13.05166
G1 X92.421 Y123.411 E13.09004
G1 X92.223 Y124.154 E13.1284
G1 X91.949 Y124.873 E13.16679
G1 X91.602 Y125.559 E13.20514
G1 X91.186 Y126.206 E13.24352
G1 X90.705 Y126.806 E13.28188
G1 X90.296 Y127.233 E13.31138
G1 X89.724 Y127.747 E13.34975
G1 X89.102 Y128.2 E13.38814
G1 X88.437 Y128.586 E13.4265
G1 X87.735 Y128.901 E13.46489
G1 X87.004 Y129.141 E13.50327
G1 X86.253 Y129.304 E13.54161
G1 X85.884 Y129.347 E13.56015
G1 X85.262 Y129.8 E13.59854
G1 X84.597 Y130.186 E13.6369
G1 X83.895 Y130.501 E13.67528
G1 X83.164 Y130.741 E13.71367
G1 X82.413 Y130.904 E13.75201
G1 X81.648 Y130.988 E13.7904
G1 X81.223 Y131 E13.81162
G1 X73.777 Y131 E14.1831
G1 X73.009 Y130.96 E14.22147
G1 X72.249 Y130.841 E14.25984
G1 X71.506 Y130.643 E14.29821
G1 X70.787 Y130.369 E14.33659
G1 X70.101 Y130.022 E14.37495
G1 X69.454 Y129.606 E14.41332
G1 X69.142 Y129.356 E14.43327
G1 X68.409 Y129.241 E14.47029
G1 X67.666 Y129.043 E14.50865
G1 X66.947 Y128.769 E14.54704
G1 X66.261 Y128.422 E14.58539
G1 X65.614 Y128.006 E14.62377
G1 X65.014 Y127.525 E14.66213
G1 X64.587 Y127.116 E14.69163
G1 X64.073 Y126.544 E14.73
G1 X63.62 Y125.922 E14.76839
G1 X63.234 Y125.257 E14.80675
G1 X62.919 Y124.555 E14.84513
G1 X62.679 Y123.824 E14.88352
G1 X62.516 Y123.073 E14.92186
G1 X62.432 Y122.308 E14.96025
G1 X62.42 Y121.883 E14.98147
G1 X62.42 Y117.2 E15.2151
G1 X62.46 Y116.432 E15.25347
G1 X62.579 Y115.672 E15.29185
G1 X62.777 Y114.929 E15.33021
G1 X63.051 Y114.21 E15.3686
G1 X63.224 Y113.868 E15.38772
G1 X63.113 Y113.744 E15.39602
G1 X62.66 Y113.122 E15.43441
G1 X62.274 Y112.457 E15.47277
G1 X61.959 Y111.755 E15.51116
G1 X61.719 Y111.024 E15.54954
G1 X61.556 Y110.273 E15.58788
G1 X61.472 Y109.508 E15.62628
G1 X61.46 Y109.083 E15.64749
G1 X61.46 Y102.917 E15.95511
G1 X61.5 Y102.149 E15.99348
G1 X61.619 Y101.389 E16.03186
G1 X61.817 Y100.646 E16.07022
G1 X62.091 Y99.927 E16.10861
G1 X62.239 Y99.635 E16.12494
G1 X62.082 Y99.456 E16.13682
G1 X61.639 Y98.827 E16.1752
G1 X61.263 Y98.156 E16.21358
G1 X60.959 Y97.449 E16.25197
G1 X60.73 Y96.715 E16.29033
G1 X60.579 Y95.961 E16.3287
G1 X60.5 Y94.883 E16.38262
G1 X60.5 Y90.794 E16.58662
G1 X60.54 Y90.026 E16.62499
G1 X60.659 Y89.266 E16.66337
G1 X60.857 Y88.523 E16.70173
G1 X61.131 Y87.804 E16.74012
G1 X61.478 Y87.118 E16.77847
G1 X61.717 Y86.746 E16.80053
G1 X61.7 Y86.722 E16.802
G1 X61.314 Y86.057 E16.84036
G1 X60.999 Y85.355 E16.87875
G1 X60.759 Y84.624 E16.91713
G1 X60.596 Y83.873 E16.95547
G1 X60.512 Y83.108 E16.99387
G1 X60.5 Y82.683 E17.01508
G1 X60.5 Y76.517 E17.3227
G1 X60.54 Y75.749 E17.36107
G1 X60.659 Y74.989 E17.39945
G1 X60.857 Y74.246 E17.43781
G1 X61.131 Y73.527 E17.4762
G1 X61.478 Y72.841 E17.51455
G1 X61.894 Y72.194 E17.55293
G1 X62.375 Y71.594 E17.59129
G1 X62.784 Y71.167 E17.62079
G1 X63.356 Y70.653 E17.65916
G0 F3600 X63.624 Y70.95
G1 F1800 X64.23 Y70.513 E17.69643
G1 X64.88 Y70.142 E17.73377
G1 X65.566 Y69.843 E17.77111
G1 X66.28 Y69.619 E17.80844
G1 X67.013 Y69.472 E17.84574
G1 X68.017 Y69.4 E17.89596
G1 X75.463 Y69.4 E18.26744
G1 X76.21 Y69.44 E18.30476
G1 X76.948 Y69.559 E18.34206
G1 X77.505 Y69.712 E18.37087
G1 X77.8 Y69.619 E18.38631
G1 X78.533 Y69.472 E18.4236
G1 X79.537 Y69.4 E18.47382
G1 X86.983 Y69.4 E18.8453
G1 X87.73 Y69.44 E18.88263
G1 X88.468 Y69.559 E18.91992
G1 X89.19 Y69.757 E18.95727
G1 X89.886 Y70.03 E18.99457
G1 X90.549 Y70.377 E19.0319
G1 X91.172 Y70.792 E19.06925
G1 X91.933 Y71.45 E19.11944
G1 X92.05 Y71.567 E19.1277
G1 X92.55 Y72.124 E19.16504
G1 X92.987 Y72.73 E19.20231
G1 X93.358 Y73.38 E19.23965
G1 X93.657 Y74.066 E19.27699
G1 X93.881 Y74.78 E19.31432
G1 X94.028 Y75.513 E19.35162
G1 X94.1 Y76.517 E19.40184
G1 X94.1 Y82.683 E19.70946
G1 X94.06 Y83.43 E19.74678
G1 X93.941 Y84.168 E19.78407
G1 X93.743 Y84.89 E19.82143
G1 X93.47 Y85.586 E19.85872
G1 X93.123 Y86.249 E19.89606
G1 X92.796 Y86.74 E19.92549
G1 X93.09 Y87.172 E19.95156
G1 X93.442 Y87.832 E19.98888
G1 X93.722 Y88.526 E20.02621
G1 X93.926 Y89.245 E20.0635
G1 X94.053 Y89.983 E20.10086
G1 X94.1 Y90.795 E20.14144
G1 X94.1 Y94.882 E20.34534
G1 X94.06 Y95.629 E20.38266
G1 X93.941 Y96.367 E20.41996
G1 X93.743 Y97.089 E20.45731
G1 X93.47 Y97.785 E20.49461
G1 X93.123 Y98.448 E20.53194
G1 X92.708 Y99.071 E20.56929
G1 X92.284 Y99.58 E20.60234
G1 X92.398 Y99.78 E20.61382
G1 X92.697 Y100.466 E20.65116
G1 X92.921 Y101.18 E20.68849
G1 X93.068 Y101.913 E20.72579
G1 X93.14 Y102.917 E20.77601
G1 X93.14 Y109.083 E21.08363
G1 X93.1 Y109.83 E21.12095
G1 X92.981 Y110.568 E21.15824
G1 X92.783 Y111.29 E21.1956
G1 X92.51 Y111.986 E21.23289
G1 X92.163 Y112.649 E21.27023
G1 X91.748 Y113.272 E21.30757
G1 X91.294 Y113.797 E21.3422
G1 X91.318 Y113.836 E21.34449
G1 X91.642 Y114.51 E21.3818
G1 X91.892 Y115.215 E21.41911
G1 X92.066 Y115.943 E21.45646
G1 X92.161 Y116.685 E21.49378
G1 X92.18 Y117.201 E21.51954
G1 X92.18 Y121.883 E21.75312
G1 X92.14 Y122.63 E21.79045
G1 X92.021 Y123.368 E21.82774
G1 X91.823 Y124.09 E21.86509
G1 X91.55 Y124.786 E21.90239
G1 X91.203 Y125.449 E21.93972
G1 X90.788 Y126.072 E21.97707
G1 X90.13 Y126.833 E22.02726
G1 X90.013 Y126.95 E22.03552
G1 X89.456 Y127.45 E22.07286
G1 X88.85 Y127.887 E22.11013
G1 X88.2 Y128.258 E22.14747
G1 X87.514 Y128.557 E22.18481
G1 X86.8 Y128.781 E22.22214
G1 X86.067 Y128.928 E22.25944
G1 X85.725 Y128.953 E22.27655
G1 X85.616 Y129.05 E22.28383
G1 X85.01 Y129.487 E22.3211
G1 X84.36 Y129.858 E22.35844
G1 X83.674 Y130.157 E22.39577
G1 X82.96 Y130.381 E22.43311
G1 X82.227 Y130.528 E22.4704
G1 X81.223 Y130.6 E22.52062
G1 X73.777 Y130.6 E22.89211
G1 X73.03 Y130.56 E22.92943
G1 X72.292 Y130.441 E22.96672
G1 X71.57 Y130.243 E23.00407
G1 X70.874 Y129.97 E23.04137
G1 X70.211 Y129.623 E23.07871
G1 X69.588 Y129.208 E23.11605
G1 X69.309 Y128.966 E23.13448
G1 X69.19 Y128.96 E23.14042
G1 X68.452 Y128.841 E23.17772
G1 X67.73 Y128.643 E23.21507
G1 X67.034 Y128.37 E23.25237
G1 X66.371 Y128.023 E23.2897
G1 X65.748 Y127.608 E23.32705
G1 X64.987 Y126.95 E23.37724
G1 X64.87 Y126.833 E23.38549
G1 X64.37 Y126.276 E23.42283
G1 X63.933 Y125.67 E23.46011
G1 X63.562 Y125.02 E23.49745
G1 X63.263 Y124.334 E23.53478
G1 X63.039 Y123.62 E23.57212
G1 X62.892 Y122.887 E23.60941
G1 X62.82 Y121.883 E23.65963
G1 X62.82 Y117.2 E23.89327
G1 X62.86 Y116.453 E23.93059
G1 X62.979 Y115.715 E23.96788
G1 X63.177 Y114.993 E24.00523
G1 X63.45 Y114.297 E24.04253
G1 X63.707 Y113.807 E24.07014
G1 X63.41 Y113.476 E24.09233
G1 X62.973 Y112.87 E24.1296
G1 X62.602 Y112.22 E24.16694
G1 X62.303 Y111.534 E24.20427
G1 X62.079 Y110.82 E24.24161
G1 X61.932 Y110.087 E24.2789
G1 X61.86 Y109.083 E24.32912
G1 X61.86 Y102.917 E24.63675
G1 X61.9 Y102.17 E24.67407
G1 X62.019 Y101.432 E24.71136
G1 X62.217 Y100.71 E24.74871
G1 X62.49 Y100.014 E24.78601
G1 X62.716 Y99.583 E24.81029
G1 X62.272 Y99.045 E24.84509
G1 X61.86 Y98.421 E24.8824
G1 X61.517 Y97.756 E24.91973
G1 X61.247 Y97.059 E24.95702
G1 X61.053 Y96.336 E24.99437
G1 X60.937 Y95.597 E25.03169
G1 X60.9 Y94.883 E25.06735
G1 X60.9 Y90.794 E25.27136
G1 X60.94 Y90.047 E25.30868
G1 X61.059 Y89.309 E25.34597
G1 X61.257 Y88.587 E25.38332
G1 X61.53 Y87.891 E25.42062
G1 X61.877 Y87.228 E25.45796
G1 X62.205 Y86.736 E25.48746
G1 X62.013 Y86.47 E25.50382
G1 X61.642 Y85.82 E25.54116
G1 X61.343 Y85.134 E25.5785
G1 X61.119 Y84.42 E25.61583
G1 X60.972 Y83.687 E25.65313
G1 X60.9 Y82.683 E25.70335
G1 X60.9 Y76.517 E26.01097
G1 X60.94 Y75.77 E26.04829
G1 X61.059 Y75.032 E26.08558
G1 X61.257 Y74.31 E26.12294
G1 X61.53 Y73.614 E26.16023
G1 X61.877 Y72.951 E26.19757
G1 X62.292 Y72.328 E26.23491
G1 X62.95 Y71.567 E26.28511
G1 X63.067 Y71.45 E26.29336
G1 X63.624 Y70.95 E26.3307
G0 F3600 X63.891 Y71.249
G1 F1800 X64.482 Y70.826 E26.36696
G1 X65.116 Y70.472 E26.40319
G1 X65.785 Y70.189 E26.43943
G1 X66.481 Y69.981 E26.47567
G1 X67.196 Y69.851 E26.51193
G1 X68.017 Y69.8 E26.55297
G1 X75.463 Y69.8 E26.92445
G1 X76.188 Y69.84 E26.96067
G1 X76.905 Y69.959 E26.99693
G1 X77.505 Y70.129 E27.02805
G1 X78.001 Y69.981 E27.05387
G1 X78.716 Y69.851 E27.09013
G1 X79.537 Y69.8 E27.13116
G1 X86.983 Y69.8 E27.50265
G1 X87.708 Y69.84 E27.53887
G1 X88.425 Y69.959 E27.57513
G1 X89.124 Y70.157 E27.61138
G1 X89.797 Y70.43 E27.64761
G1 X90.436 Y70.775 E27.68384
G1 X91.033 Y71.189 E27.72009
G1 X91.65 Y71.733 E27.76113
G1 X91.767 Y71.85 E27.76938
G1 X92.251 Y72.391 E27.8056
G1 X92.674 Y72.982 E27.84185
G1 X93.028 Y73.616 E27.87808
G1 X93.311 Y74.285 E27.91432
G1 X93.519 Y74.981 E27.95056
G1 X93.649 Y75.696 E27.98682
G1 X93.7 Y76.517 E28.02786
